; generated by PrusaSlicer 2.3.1+win64 on 2021-07-03 at 22:23:05 UTC

; 

; external perimeters extrusion width = 0.45mm
; perimeters extrusion width = 0.45mm
; infill extrusion width = 0.45mm
; solid infill extrusion width = 0.45mm
; top infill extrusion width = 0.45mm
; first layer extrusion width = 0.42mm

M73 P0 R25
M201 X9000 Y9000 Z500 E10000 ; sets maximum accelerations, mm/sec^2
M203 X500 Y500 Z12 E120 ; sets maximum feedrates, mm/sec
M204 P2000 R1500 T2000 ; sets acceleration (P, T) and retract acceleration (R), mm/sec^2
M205 X10.00 Y10.00 Z0.20 E4.50 ; sets the jerk limits, mm/sec
M205 S0 T0 ; sets the minimum extruding and travel feed rate, mm/sec
M107
;TYPE:Custom
M862.3 P "MK2.5S" ; printer model check
M862.1 P0.4 ; nozzle diameter check
M115 U3.10.0 ; tell printer latest fw version
G90 ; use absolute coordinates
M83  ; extruder relative mode
M104 S215 ; set extruder temp
M140 S60 ; set bed temp
M190 S60 ; wait for bed temp
M109 S215 ; wait for extruder temp
G28 W ; home all without mesh bed level
G80 ; mesh bed leveling
G1 Y-3.0 F1000.0 ; go outside print area
G92 E0.0
G1 X60.0 E9.0 F1000.0 ; intro line
G1 X100.0 E12.5 F1000.0 ; intro line
G92 E0.0
G21 ; set units to millimeters
G90 ; use absolute coordinates
M83 ; use relative distances for extrusion
M900 K0.05 ; Filament gcode LA 1.5
M900 K30 ; Filament gcode LA 1.0
;LAYER_CHANGE
;Z:0.2
;HEIGHT:0.2
;BEFORE_LAYER_CHANGE
G92 E0.0
;0.2


G1 E-0.80000 F2100.000
G1 Z0.400 F10800.000
;AFTER_LAYER_CHANGE
;0.2
G1 X95.677 Y75.469
G1 Z0.200
G1 E0.80000 F2100.000
M204 S1000
;TYPE:Skirt
;WIDTH:0.42
G1 F1200.000
G1 X96.723 Y74.766 E0.03952
G1 X97.376 Y74.532 E0.02177
G1 X97.988 Y74.420 E0.01949
G1 X130.604 Y74.398 E1.02265
G1 X152.084 Y74.523 E0.67350
G1 X152.966 Y74.709 E0.02826
G1 X153.795 Y75.096 E0.02869
G1 X154.473 Y75.622 E0.02690
G1 X155.042 Y76.304 E0.02786
G1 X155.516 Y77.303 E0.03465
G1 X155.702 Y78.467 E0.03698
G1 X155.652 Y110.565 E1.00640
G1 X155.576 Y111.326 E0.02399
G1 X155.230 Y112.343 E0.03367
G1 X154.542 Y113.321 E0.03749
G1 X133.401 Y134.557 E0.93956
G1 X132.779 Y135.057 E0.02500
G1 X131.810 Y135.514 E0.03359
G1 X130.695 Y135.700 E0.03545
G1 X119.485 Y135.702 E0.35150
G1 X118.729 Y135.626 E0.02381
G1 X117.706 Y135.276 E0.03390
G1 X116.721 Y134.579 E0.03784
G1 X95.529 Y113.387 E0.93968
M73 P1 R25
G1 X95.056 Y112.798 E0.02369
G1 X94.738 Y112.211 E0.02094
G1 X94.482 Y111.411 E0.02634
G1 X94.398 Y110.619 E0.02496
G1 X94.398 Y78.396 E1.01033
G1 X94.474 Y77.629 E0.02417
G1 X94.664 Y76.970 E0.02149
G1 X94.950 Y76.374 E0.02075
G1 X95.639 Y75.516 E0.03450
; printing object Logo Speaker.stl id:1 copy 0
;WIPE_START
G1 F8640.000
G1 X96.723 Y74.766 E-0.30425
G1 X97.376 Y74.532 E-0.16031
G1 X97.988 Y74.420 E-0.14355
G1 X98.646 Y74.419 E-0.15188
;WIPE_END
G1 E-0.04000 F2100.000
G1 Z0.600 F10800.000
G1 X119.041 Y120.378
G1 Z0.200
G1 E0.80000 F2100.000
;TYPE:Perimeter
G1 F1200.000
G1 X119.106 Y120.276 E0.00379
G1 X119.234 Y120.166 E0.00528
G1 X119.441 Y120.094 E0.00688
G1 X119.528 Y120.087 E0.00275
G1 X130.573 Y120.088 E0.34630
G1 X130.758 Y120.115 E0.00587
G1 X130.924 Y120.206 E0.00593
G1 X131.065 Y120.388 E0.00722
G1 X131.112 Y120.627 E0.00763
G1 X131.113 Y131.672 E0.34630
G1 X131.059 Y131.922 E0.00803
G1 X130.994 Y132.024 E0.00379
G1 X130.828 Y132.156 E0.00664
G1 X130.572 Y132.213 E0.00824
G1 X119.528 Y132.213 E0.34626
G1 X119.278 Y132.159 E0.00803
G1 X119.176 Y132.094 E0.00379
G1 X119.044 Y131.928 E0.00664
G1 X118.987 Y131.672 E0.00824
G1 X118.987 Y120.628 E0.34626
G1 X119.024 Y120.436 E0.00615
G1 X118.752 Y120.119 F10800.000
;TYPE:External perimeter
G1 F1200.000
G1 X118.829 Y120.017 E0.00402
G1 X119.016 Y119.856 E0.00773
G1 X119.124 Y119.795 E0.00390
G1 X119.372 Y119.721 E0.00810
G1 X119.514 Y119.710 E0.00447
G1 X130.600 Y119.711 E0.34761
G1 X130.851 Y119.748 E0.00794
G1 X130.960 Y119.787 E0.00363
G1 X131.183 Y119.929 E0.00830
G1 X131.344 Y120.116 E0.00773
G1 X131.408 Y120.230 E0.00411
G1 X131.453 Y120.350 E0.00400
G1 X131.489 Y120.600 E0.00793
G1 X131.490 Y131.686 E0.34761
M73 P1 R24
G1 X131.479 Y131.829 E0.00449
G1 X131.410 Y132.066 E0.00773
G1 X131.271 Y132.283 E0.00808
G1 X131.084 Y132.444 E0.00773
G1 X130.976 Y132.505 E0.00390
G1 X130.728 Y132.579 E0.00810
G1 X130.586 Y132.590 E0.00447
G1 X119.514 Y132.590 E0.34717
G1 X119.371 Y132.579 E0.00449
G1 X119.134 Y132.510 E0.00773
G1 X118.917 Y132.371 E0.00808
G1 X118.756 Y132.184 E0.00773
G1 X118.695 Y132.076 E0.00390
G1 X118.621 Y131.828 E0.00810
G1 X118.610 Y131.686 E0.00447
G1 X118.610 Y120.614 E0.34717
G1 X118.621 Y120.471 E0.00449
G1 X118.724 Y120.172 E0.00990
G1 X118.880 Y120.120 F10800.000
;WIPE_START
G1 F8640.000
G1 X118.829 Y120.017 E-0.04333
G1 X119.016 Y119.856 E-0.05696
G1 X119.124 Y119.795 E-0.02870
G1 X119.372 Y119.721 E-0.05963
G1 X119.514 Y119.710 E-0.03292
G1 X121.846 Y119.710 E-0.53845
;WIPE_END
G1 E-0.04000 F2100.000
G1 Z0.600 F10800.000
G1 X130.999 Y120.689
G1 Z0.200
G1 E0.80000 F2100.000
;TYPE:Solid infill
;WIDTH:0.427132
G1 F1200.000
G1 X130.736 Y120.425 E0.01189
G1 X130.667 Y120.388 E0.00251
G1 X130.552 Y120.371 E0.00369
G1 X130.138 Y120.371 E0.01325
G1 X130.829 Y121.062 E0.03123
G1 X130.829 Y121.606 E0.01736
G1 X129.594 Y120.371 E0.05579
G1 X129.051 Y120.371 E0.01736
G1 X130.829 Y122.149 E0.08034
G1 X130.829 Y122.693 E0.01736
G1 X128.507 Y120.371 E0.10490
G1 X127.964 Y120.371 E0.01736
G1 X130.829 Y123.236 E0.12945
G1 X130.829 Y123.779 E0.01736
G1 X127.421 Y120.371 E0.15400
G1 X126.877 Y120.371 E0.01736
G1 X130.829 Y124.323 E0.17856
G1 X130.829 Y124.866 E0.01736
G1 X126.334 Y120.371 E0.20311
G1 X125.790 Y120.371 E0.01736
G1 X130.829 Y125.410 E0.22767
G1 X130.830 Y125.953 E0.01736
G1 X125.247 Y120.370 E0.25222
G1 X124.704 Y120.370 E0.01736
G1 X130.830 Y126.496 E0.27678
G1 X130.830 Y127.040 E0.01736
G1 X124.160 Y120.370 E0.30133
G1 X123.617 Y120.370 E0.01736
G1 X130.830 Y127.583 E0.32588
G1 X130.830 Y128.127 E0.01736
G1 X123.073 Y120.370 E0.35044
G1 X122.530 Y120.370 E0.01736
G1 X130.830 Y128.670 E0.37499
G1 X130.830 Y129.214 E0.01736
G1 X121.986 Y120.370 E0.39955
G1 X121.443 Y120.370 E0.01736
G1 X130.830 Y129.757 E0.42410
M73 P2 R24
G1 X130.830 Y130.300 E0.01736
G1 X120.900 Y120.370 E0.44866
G1 X120.356 Y120.370 E0.01736
G1 X130.830 Y130.844 E0.47321
G1 X130.830 Y131.387 E0.01736
G1 X119.813 Y120.370 E0.49776
G1 X119.559 Y120.370 E0.00810
G1 X119.397 Y120.406 E0.00531
G1 X119.346 Y120.447 E0.00208
G1 X130.753 Y131.854 E0.51538
G1 X130.703 Y131.894 E0.00206
G1 X130.541 Y131.930 E0.00532
G1 X130.286 Y131.930 E0.00812
G1 X119.270 Y120.914 E0.49773
G1 X119.270 Y121.457 E0.01736
G1 X129.743 Y131.930 E0.47318
G1 X129.200 Y131.930 E0.01736
G1 X119.270 Y122.000 E0.44863
G1 X119.270 Y122.544 E0.01736
G1 X128.656 Y131.930 E0.42408
G1 X128.113 Y131.930 E0.01736
G1 X119.270 Y123.087 E0.39953
G1 X119.270 Y123.630 E0.01736
G1 X127.570 Y131.930 E0.37498
G1 X127.026 Y131.930 E0.01736
G1 X119.270 Y124.174 E0.35043
G1 X119.270 Y124.717 E0.01736
G1 X126.483 Y131.930 E0.32588
G1 X125.939 Y131.930 E0.01736
G1 X119.270 Y125.261 E0.30133
G1 X119.270 Y125.804 E0.01736
G1 X125.396 Y131.930 E0.27679
G1 X124.853 Y131.930 E0.01736
G1 X119.270 Y126.347 E0.25224
G1 X119.270 Y126.891 E0.01736
G1 X124.309 Y131.930 E0.22769
G1 X123.766 Y131.930 E0.01736
G1 X119.270 Y127.434 E0.20314
G1 X119.270 Y127.977 E0.01736
G1 X123.223 Y131.930 E0.17859
G1 X122.679 Y131.930 E0.01736
G1 X119.270 Y128.521 E0.15404
G1 X119.270 Y129.064 E0.01736
G1 X122.136 Y131.930 E0.12949
G1 X121.593 Y131.930 E0.01736
G1 X119.270 Y129.607 E0.10494
G1 X119.270 Y130.151 E0.01736
G1 X121.049 Y131.930 E0.08039
G1 X120.506 Y131.930 E0.01736
G1 X119.270 Y130.694 E0.05584
G1 X119.270 Y131.237 E0.01736
G1 X119.963 Y131.930 E0.03129
G1 X119.559 Y131.930 E0.01290
G1 X119.387 Y131.893 E0.00559
G1 X119.100 Y131.611 E0.01286
; stop printing object Logo Speaker.stl id:1 copy 0
; printing object Logo Tablet.stl id:2 copy 0
;WIPE_START
G1 F8640.000
G1 X119.387 Y131.893 E-0.09293
G1 X119.559 Y131.930 E-0.04044
G1 X119.963 Y131.930 E-0.09327
G1 X119.270 Y131.237 E-0.22618
G1 X119.270 Y130.694 E-0.12546
G1 X119.826 Y131.251 E-0.18172
;WIPE_END
G1 E-0.04000 F2100.000
G1 Z0.600 F10800.000
G1 X119.278 Y111.059
G1 Z0.200
G1 E0.80000 F2100.000
;TYPE:Perimeter
;WIDTH:0.42
G1 F1200.000
G1 X119.176 Y110.994 E0.00379
G1 X119.066 Y110.866 E0.00528
G1 X118.994 Y110.659 E0.00688
G1 X118.987 Y110.572 E0.00275
G1 X118.987 Y99.528 E0.34626
G1 X119.041 Y99.278 E0.00803
G1 X119.106 Y99.176 E0.00379
G1 X119.272 Y99.044 E0.00664
G1 X119.528 Y98.987 E0.00824
G1 X130.573 Y98.988 E0.34630
G1 X130.758 Y99.015 E0.00587
G1 X130.924 Y99.106 E0.00593
G1 X131.065 Y99.288 E0.00722
G1 X131.112 Y99.527 E0.00763
G1 X131.113 Y110.572 E0.34630
M73 P3 R24
G1 X131.059 Y110.822 E0.00803
G1 X130.994 Y110.924 E0.00379
G1 X130.828 Y111.056 E0.00664
G1 X130.572 Y111.113 E0.00824
G1 X119.528 Y111.113 E0.34626
G1 X119.336 Y111.076 E0.00615
G1 X119.019 Y111.348 F10800.000
;TYPE:External perimeter
G1 F1200.000
G1 X118.917 Y111.271 E0.00402
G1 X118.756 Y111.084 E0.00773
G1 X118.695 Y110.976 E0.00390
G1 X118.621 Y110.728 E0.00810
G1 X118.610 Y110.586 E0.00447
G1 X118.610 Y99.514 E0.34717
G1 X118.621 Y99.371 E0.00449
G1 X118.690 Y99.134 E0.00773
G1 X118.829 Y98.917 E0.00808
G1 X119.016 Y98.756 E0.00773
G1 X119.124 Y98.695 E0.00390
G1 X119.372 Y98.621 E0.00810
G1 X119.514 Y98.610 E0.00447
G1 X130.600 Y98.611 E0.34761
G1 X130.851 Y98.648 E0.00794
G1 X130.960 Y98.687 E0.00363
G1 X131.183 Y98.829 E0.00830
G1 X131.344 Y99.016 E0.00773
G1 X131.408 Y99.130 E0.00411
G1 X131.453 Y99.250 E0.00400
G1 X131.489 Y99.500 E0.00793
G1 X131.490 Y110.586 E0.34761
G1 X131.479 Y110.729 E0.00449
G1 X131.410 Y110.966 E0.00773
G1 X131.271 Y111.183 E0.00808
G1 X131.084 Y111.344 E0.00773
G1 X130.976 Y111.405 E0.00390
G1 X130.728 Y111.479 E0.00810
G1 X130.586 Y111.490 E0.00447
G1 X119.514 Y111.490 E0.34717
G1 X119.371 Y111.479 E0.00449
G1 X119.072 Y111.376 E0.00990
G1 X119.020 Y111.220 F10800.000
;WIPE_START
G1 F8640.000
G1 X118.917 Y111.271 E-0.04333
G1 X118.756 Y111.084 E-0.05696
G1 X118.695 Y110.976 E-0.02870
G1 X118.621 Y110.728 E-0.05963
G1 X118.610 Y110.586 E-0.03293
G1 X118.610 Y108.254 E-0.53845
;WIPE_END
G1 E-0.04000 F2100.000
G1 Z0.600 F10800.000
G1 X130.999 Y99.589
G1 Z0.200
G1 E0.80000 F2100.000
;TYPE:Solid infill
;WIDTH:0.427132
G1 F1200.000
G1 X130.736 Y99.325 E0.01189
G1 X130.667 Y99.288 E0.00251
G1 X130.552 Y99.271 E0.00369
G1 X130.138 Y99.271 E0.01325
G1 X130.829 Y99.962 E0.03123
G1 X130.829 Y100.506 E0.01736
G1 X129.594 Y99.271 E0.05579
G1 X129.051 Y99.271 E0.01736
G1 X130.829 Y101.049 E0.08034
G1 X130.829 Y101.593 E0.01736
G1 X128.507 Y99.271 E0.10490
G1 X127.964 Y99.271 E0.01736
G1 X130.829 Y102.136 E0.12945
G1 X130.829 Y102.679 E0.01736
G1 X127.421 Y99.271 E0.15400
G1 X126.877 Y99.271 E0.01736
G1 X130.829 Y103.223 E0.17856
G1 X130.829 Y103.766 E0.01736
G1 X126.334 Y99.271 E0.20311
G1 X125.790 Y99.271 E0.01736
G1 X130.829 Y104.310 E0.22767
G1 X130.830 Y104.853 E0.01736
G1 X125.247 Y99.270 E0.25222
G1 X124.704 Y99.270 E0.01736
G1 X130.830 Y105.396 E0.27678
G1 X130.830 Y105.940 E0.01736
G1 X124.160 Y99.270 E0.30133
G1 X123.617 Y99.270 E0.01736
G1 X130.830 Y106.483 E0.32588
G1 X130.830 Y107.027 E0.01736
G1 X123.073 Y99.270 E0.35044
G1 X122.530 Y99.270 E0.01736
G1 X130.830 Y107.570 E0.37499
G1 X130.830 Y108.114 E0.01736
G1 X121.986 Y99.270 E0.39955
G1 X121.443 Y99.270 E0.01736
G1 X130.830 Y108.657 E0.42410
G1 X130.830 Y109.200 E0.01736
G1 X120.900 Y99.270 E0.44866
G1 X120.356 Y99.270 E0.01736
G1 X130.830 Y109.744 E0.47321
G1 X130.830 Y110.287 E0.01736
G1 X119.813 Y99.270 E0.49776
G1 X119.559 Y99.270 E0.00810
G1 X119.397 Y99.306 E0.00531
G1 X119.346 Y99.347 E0.00208
G1 X130.753 Y110.754 E0.51538
G1 X130.703 Y110.794 E0.00206
G1 X130.541 Y110.830 E0.00531
G1 X130.286 Y110.830 E0.00812
G1 X119.270 Y99.814 E0.49773
G1 X119.270 Y100.357 E0.01736
G1 X129.743 Y110.830 E0.47318
M73 P4 R24
G1 X129.200 Y110.830 E0.01736
G1 X119.270 Y100.900 E0.44863
G1 X119.270 Y101.444 E0.01736
G1 X128.656 Y110.830 E0.42408
G1 X128.113 Y110.830 E0.01736
G1 X119.270 Y101.987 E0.39953
G1 X119.270 Y102.530 E0.01736
G1 X127.570 Y110.830 E0.37498
G1 X127.026 Y110.830 E0.01736
G1 X119.270 Y103.074 E0.35043
G1 X119.270 Y103.617 E0.01736
G1 X126.483 Y110.830 E0.32588
G1 X125.939 Y110.830 E0.01736
G1 X119.270 Y104.161 E0.30133
G1 X119.270 Y104.704 E0.01736
G1 X125.396 Y110.830 E0.27679
G1 X124.853 Y110.830 E0.01736
G1 X119.270 Y105.247 E0.25224
G1 X119.270 Y105.791 E0.01736
G1 X124.309 Y110.830 E0.22769
G1 X123.766 Y110.830 E0.01736
G1 X119.270 Y106.334 E0.20314
G1 X119.270 Y106.877 E0.01736
G1 X123.223 Y110.830 E0.17859
G1 X122.679 Y110.830 E0.01736
G1 X119.270 Y107.421 E0.15404
G1 X119.270 Y107.964 E0.01736
G1 X122.136 Y110.830 E0.12949
G1 X121.593 Y110.830 E0.01736
G1 X119.270 Y108.507 E0.10494
G1 X119.270 Y109.051 E0.01736
G1 X121.049 Y110.830 E0.08039
G1 X120.506 Y110.830 E0.01736
G1 X119.270 Y109.594 E0.05584
G1 X119.270 Y110.137 E0.01736
G1 X119.963 Y110.830 E0.03129
G1 X119.559 Y110.830 E0.01290
G1 X119.387 Y110.793 E0.00559
G1 X119.100 Y110.511 E0.01286
; stop printing object Logo Tablet.stl id:2 copy 0
; printing object Logo Windows.stl id:5 copy 0
;WIPE_START
G1 F8640.000
G1 X119.387 Y110.793 E-0.09293
G1 X119.559 Y110.830 E-0.04044
G1 X119.963 Y110.830 E-0.09327
G1 X119.270 Y110.137 E-0.22618
G1 X119.270 Y109.594 E-0.12546
G1 X119.826 Y110.151 E-0.18172
;WIPE_END
G1 E-0.04000 F2100.000
G1 Z0.600 F10800.000
G1 X140.328 Y111.014
G1 Z0.200
G1 E0.80000 F2100.000
;TYPE:Perimeter
;WIDTH:0.42
G1 F1200.000
G1 X140.226 Y110.949 E0.00379
G1 X140.116 Y110.822 E0.00528
G1 X140.044 Y110.615 E0.00688
G1 X140.037 Y110.527 E0.00275
G1 X140.037 Y99.484 E0.34626
G1 X140.091 Y99.234 E0.00803
G1 X140.156 Y99.132 E0.00379
G1 X140.322 Y99.000 E0.00664
G1 X140.578 Y98.943 E0.00824
G1 X151.623 Y98.944 E0.34630
G1 X151.808 Y98.971 E0.00587
G1 X151.974 Y99.062 E0.00593
G1 X152.115 Y99.244 E0.00722
G1 X152.162 Y99.483 E0.00763
G1 X152.163 Y110.527 E0.34630
G1 X152.109 Y110.778 E0.00803
G1 X152.044 Y110.879 E0.00379
G1 X151.878 Y111.011 E0.00664
G1 X151.622 Y111.069 E0.00824
G1 X140.578 Y111.069 E0.34626
G1 X140.386 Y111.031 E0.00615
G1 X140.069 Y111.304 F10800.000
;TYPE:External perimeter
G1 F1200.000
G1 X139.967 Y111.226 E0.00402
G1 X139.806 Y111.040 E0.00773
G1 X139.745 Y110.931 E0.00390
G1 X139.671 Y110.684 E0.00810
G1 X139.660 Y110.542 E0.00447
G1 X139.660 Y99.469 E0.34717
G1 X139.671 Y99.327 E0.00449
G1 X139.740 Y99.090 E0.00773
G1 X139.879 Y98.873 E0.00808
G1 X140.066 Y98.711 E0.00773
G1 X140.174 Y98.650 E0.00390
G1 X140.422 Y98.577 E0.00810
G1 X140.564 Y98.566 E0.00447
G1 X151.650 Y98.567 E0.34761
G1 X151.901 Y98.603 E0.00794
G1 X152.010 Y98.643 E0.00363
G1 X152.233 Y98.785 E0.00830
G1 X152.394 Y98.971 E0.00773
G1 X152.458 Y99.086 E0.00411
G1 X152.503 Y99.205 E0.00400
G1 X152.539 Y99.456 E0.00793
G1 X152.540 Y110.542 E0.34761
G1 X152.529 Y110.685 E0.00449
G1 X152.460 Y110.921 E0.00773
G1 X152.321 Y111.138 E0.00808
G1 X152.134 Y111.300 E0.00773
G1 X152.026 Y111.361 E0.00390
G1 X151.778 Y111.435 E0.00810
G1 X151.636 Y111.446 E0.00447
G1 X140.564 Y111.446 E0.34717
G1 X140.421 Y111.435 E0.00449
G1 X140.122 Y111.332 E0.00990
G1 X140.070 Y111.175 F10800.000
;WIPE_START
G1 F8640.000
G1 X139.967 Y111.226 E-0.04333
G1 X139.806 Y111.040 E-0.05696
G1 X139.745 Y110.931 E-0.02870
G1 X139.671 Y110.684 E-0.05963
G1 X139.660 Y110.542 E-0.03293
G1 X139.660 Y108.210 E-0.53845
;WIPE_END
G1 E-0.04000 F2100.000
G1 Z0.600 F10800.000
G1 X152.049 Y99.544
G1 Z0.200
G1 E0.80000 F2100.000
;TYPE:Solid infill
;WIDTH:0.427132
G1 F1200.000
G1 X151.786 Y99.281 E0.01189
G1 X151.717 Y99.243 E0.00251
G1 X151.602 Y99.227 E0.00369
G1 X151.188 Y99.227 E0.01325
G1 X151.879 Y99.918 E0.03123
G1 X151.879 Y100.461 E0.01736
G1 X150.644 Y99.227 E0.05579
G1 X150.101 Y99.226 E0.01736
G1 X151.879 Y101.005 E0.08034
G1 X151.879 Y101.548 E0.01736
G1 X149.557 Y99.226 E0.10490
G1 X149.014 Y99.226 E0.01736
G1 X151.879 Y102.092 E0.12945
G1 X151.879 Y102.635 E0.01736
G1 X148.471 Y99.226 E0.15400
G1 X147.927 Y99.226 E0.01736
G1 X151.879 Y103.178 E0.17856
M73 P5 R24
G1 X151.879 Y103.722 E0.01736
