; generated by PrusaSlicer 2.3.1+win64 on 2021-07-03 at 17:41:55 UTC

; 

; external perimeters extrusion width = 0.45mm
; perimeters extrusion width = 0.45mm
; infill extrusion width = 0.45mm
; solid infill extrusion width = 0.45mm
; top infill extrusion width = 0.40mm
; first layer extrusion width = 0.42mm

M73 P0 R24
M201 X9000 Y9000 Z500 E10000 ; sets maximum accelerations, mm/sec^2
M203 X500 Y500 Z12 E120 ; sets maximum feedrates, mm/sec
M204 P2000 R1500 T2000 ; sets acceleration (P, T) and retract acceleration (R), mm/sec^2
M205 X10.00 Y10.00 Z0.20 E4.50 ; sets the jerk limits, mm/sec
M205 S0 T0 ; sets the minimum extruding and travel feed rate, mm/sec
M107
;TYPE:Custom
M862.3 P "MK2.5S" ; printer model check
M862.1 P0.4 ; nozzle diameter check
M115 U3.10.0 ; tell printer latest fw version
G90 ; use absolute coordinates
M83  ; extruder relative mode
M104 S215 ; set extruder temp
M140 S60 ; set bed temp
M190 S60 ; wait for bed temp
M109 S215 ; wait for extruder temp
G28 W ; home all without mesh bed level
G80 ; mesh bed leveling
G1 Y-3.0 F1000.0 ; go outside print area
G92 E0.0
G1 X60.0 E9.0 F1000.0 ; intro line
G1 X100.0 E12.5 F1000.0 ; intro line
G92 E0.0
G21 ; set units to millimeters
G90 ; use absolute coordinates
M83 ; use relative distances for extrusion
M900 K0.05 ; Filament gcode LA 1.5
M900 K30 ; Filament gcode LA 1.0
;LAYER_CHANGE
;Z:0.2
;HEIGHT:0.2
;BEFORE_LAYER_CHANGE
G92 E0.0
;0.2


G1 E-0.80000 F2100.000
G1 Z0.400 F10800.000
;AFTER_LAYER_CHANGE
;0.2
G1 X72.240 Y82.977
G1 Z0.200
G1 E0.80000 F2100.000
M204 S1000
;TYPE:Skirt
;WIDTH:0.42
G1 F1200.000
G1 X73.078 Y82.823 E0.02673
G1 X176.921 Y82.823 E3.25591
G1 X177.823 Y83.002 E0.02884
G1 X178.590 Y83.511 E0.02884
G1 X180.716 Y85.676 E0.09517
G1 X181.052 Y86.323 E0.02284
G1 X181.177 Y87.037 E0.02272
G1 X181.169 Y123.119 E1.13133
G1 X180.989 Y123.844 E0.02343
G1 X180.590 Y124.481 E0.02355
G1 X178.504 Y126.570 E0.09258
G1 X177.760 Y127.023 E0.02731
G1 X176.922 Y127.177 E0.02673
G1 X73.010 Y127.176 E3.25806
M73 P1 R24
G1 X72.230 Y127.019 E0.02496
G1 X71.545 Y126.613 E0.02496
G1 X69.433 Y124.507 E0.09353
G1 X68.977 Y123.760 E0.02743
G1 X68.823 Y122.925 E0.02661
G1 X68.831 Y86.893 E1.12978
G1 X69.008 Y86.163 E0.02355
G1 X69.407 Y85.522 E0.02367
G1 X71.493 Y83.433 E0.09258
G1 X72.189 Y83.009 E0.02555
; printing object Deej oXiVanisher Remix Lid.stl id:0 copy 0
;WIPE_START
G1 F8640.000
G1 X73.078 Y82.823 E-0.20982
G1 X75.461 Y82.823 E-0.55018
;WIPE_END
G1 E-0.04000 F2100.000
G1 Z0.600 F10800.000
G1 X173.855 Y121.279
G1 Z0.200
G1 E0.80000 F2100.000
;TYPE:External perimeter
G1 F1200.000
G1 X174.056 Y120.793 E0.01648
G1 X174.376 Y120.376 E0.01648
G1 X174.793 Y120.056 E0.01648
G1 X175.279 Y119.855 E0.01648
G1 X175.800 Y119.786 E0.01648
G1 X176.321 Y119.855 E0.01648
G1 X176.807 Y120.056 E0.01648
G1 X177.224 Y120.376 E0.01648
G1 X177.544 Y120.793 E0.01648
G1 X177.745 Y121.279 E0.01648
G1 X177.814 Y121.800 E0.01648
G1 X177.745 Y122.321 E0.01648
G1 X177.544 Y122.807 E0.01648
G1 X177.224 Y123.224 E0.01648
G1 X176.807 Y123.544 E0.01648
G1 X176.321 Y123.745 E0.01648
G1 X175.800 Y123.814 E0.01648
G1 X175.279 Y123.745 E0.01648
G1 X174.793 Y123.544 E0.01648
G1 X174.376 Y123.224 E0.01648
G1 X174.056 Y122.807 E0.01648
G1 X173.855 Y122.321 E0.01648
G1 X173.786 Y121.800 E0.01648
G1 X173.847 Y121.338 E0.01460
G1 X173.572 Y120.996 F10800.000
;WIPE_START
G1 F8640.000
G1 X174.056 Y120.793 E-0.13480
G1 X174.376 Y120.376 E-0.12137
G1 X174.793 Y120.056 E-0.12137
G1 X175.279 Y119.855 E-0.12137
G1 X175.800 Y119.786 E-0.12137
G1 X176.321 Y119.855 E-0.12137
G1 X176.395 Y119.885 E-0.01834
;WIPE_END
G1 E-0.04000 F2100.000
G1 Z0.600 F10800.000
G1 X175.800 Y90.214
G1 Z0.200
G1 E0.80000 F2100.000
G1 F1200.000
G1 X175.279 Y90.145 E0.01648
G1 X174.793 Y89.944 E0.01648
G1 X174.376 Y89.624 E0.01648
G1 X174.056 Y89.207 E0.01648
G1 X173.887 Y88.799 E0.01385
G1 X173.855 Y88.721 E0.00263
G1 X173.786 Y88.200 E0.01648
G1 X173.855 Y87.679 E0.01648
G1 X174.056 Y87.193 E0.01648
G1 X174.376 Y86.776 E0.01648
G1 X174.793 Y86.456 E0.01648
G1 X175.279 Y86.255 E0.01648
G1 X175.800 Y86.186 E0.01648
G1 X176.321 Y86.255 E0.01648
G1 X176.807 Y86.456 E0.01648
G1 X177.224 Y86.776 E0.01648
G1 X177.544 Y87.193 E0.01648
G1 X177.745 Y87.679 E0.01648
G1 X177.814 Y88.200 E0.01648
G1 X177.745 Y88.721 E0.01648
G1 X177.544 Y89.207 E0.01648
G1 X177.224 Y89.624 E0.01648
G1 X176.807 Y89.944 E0.01648
G1 X176.321 Y90.145 E0.01648
G1 X175.859 Y90.206 E0.01460
G1 X175.600 Y90.560 F10800.000
;WIPE_START
G1 F8640.000
G1 X175.279 Y90.145 E-0.13480
G1 X174.793 Y89.944 E-0.12137
G1 X174.376 Y89.624 E-0.12137
G1 X174.056 Y89.207 E-0.12137
G1 X173.887 Y88.799 E-0.10202
G1 X173.855 Y88.721 E-0.01935
G1 X173.786 Y88.200 E-0.12137
G1 X173.797 Y88.121 E-0.01834
;WIPE_END
G1 E-0.04000 F2100.000
G1 Z0.600 F10800.000
G1 X120.213 Y87.913
G1 Z0.200
G1 E0.80000 F2100.000
;TYPE:Perimeter
G1 F1200.000
G1 X129.787 Y87.913 E0.30019
G1 X129.787 Y92.487 E0.14342
G1 X120.213 Y92.487 E0.30019
G1 X120.213 Y87.973 E0.14154
G1 X120.590 Y88.290 F10800.000
;TYPE:External perimeter
G1 F1200.000
G1 X129.410 Y88.290 E0.27654
G1 X129.410 Y92.110 E0.11977
G1 X120.590 Y92.110 E0.27654
G1 X120.590 Y88.350 E0.11789
G1 X120.439 Y87.920 F10800.000
;WIPE_START
G1 F8640.000
G1 X123.881 Y88.328 E-0.76000
;WIPE_END
G1 E-0.04000 F2100.000
G1 Z0.600 F10800.000
G1 X75.059 Y85.987
G1 Z0.200
G1 E0.80000 F2100.000
;TYPE:Perimeter
M73 P2 R24
G1 F1200.000
G1 X174.940 Y85.987 E3.13170
G1 X174.603 Y86.127 E0.01145
G1 X174.107 Y86.507 E0.01959
G1 X173.727 Y87.003 E0.01959
G1 X173.488 Y87.580 E0.01959
G1 X173.406 Y88.200 E0.01959
G1 X173.488 Y88.820 E0.01959
G1 X173.727 Y89.397 E0.01959
G1 X174.107 Y89.893 E0.01959
G1 X174.603 Y90.273 E0.01959
G1 X175.180 Y90.512 E0.01959
G1 X175.800 Y90.594 E0.01959
G1 X176.420 Y90.512 E0.01959
G1 X176.997 Y90.273 E0.01959
G1 X177.493 Y89.893 E0.01959
G1 X177.873 Y89.397 E0.01959
G1 X178.013 Y89.059 E0.01145
G1 X178.013 Y120.941 E0.99961
G1 X177.873 Y120.603 E0.01145
G1 X177.493 Y120.107 E0.01959
G1 X176.997 Y119.727 E0.01959
G1 X176.420 Y119.488 E0.01959
G1 X175.800 Y119.406 E0.01959
G1 X175.180 Y119.488 E0.01959
G1 X174.603 Y119.727 E0.01959
G1 X174.107 Y120.107 E0.01959
G1 X173.727 Y120.603 E0.01959
G1 X173.488 Y121.180 E0.01959
G1 X173.406 Y121.800 E0.01959
G1 X173.488 Y122.420 E0.01959
G1 X173.727 Y122.997 E0.01959
G1 X174.107 Y123.493 E0.01959
G1 X174.603 Y123.873 E0.01959
G1 X174.940 Y124.013 E0.01145
G1 X75.059 Y124.013 E3.13170
G1 X75.397 Y123.873 E0.01145
G1 X75.893 Y123.493 E0.01959
G1 X76.273 Y122.997 E0.01959
G1 X76.512 Y122.420 E0.01959
G1 X76.594 Y121.800 E0.01959
G1 X76.512 Y121.180 E0.01959
G1 X76.273 Y120.603 E0.01959
G1 X75.893 Y120.107 E0.01959
G1 X75.397 Y119.727 E0.01959
G1 X74.820 Y119.488 E0.01959
G1 X74.200 Y119.406 E0.01959
G1 X73.580 Y119.488 E0.01959
G1 X73.003 Y119.727 E0.01959
G1 X72.507 Y120.107 E0.01959
G1 X72.127 Y120.603 E0.01959
G1 X71.987 Y120.940 E0.01145
G1 X71.987 Y89.060 E0.99961
M73 P3 R24
G1 X72.127 Y89.397 E0.01145
G1 X72.507 Y89.893 E0.01959
G1 X73.003 Y90.273 E0.01959
G1 X73.580 Y90.512 E0.01959
G1 X74.200 Y90.594 E0.01959
G1 X74.820 Y90.512 E0.01959
G1 X75.397 Y90.273 E0.01959
G1 X75.893 Y89.893 E0.01959
G1 X76.273 Y89.397 E0.01959
G1 X76.512 Y88.820 E0.01959
G1 X76.594 Y88.200 E0.01959
G1 X76.512 Y87.580 E0.01959
G1 X76.273 Y87.003 E0.01959
G1 X75.893 Y86.507 E0.01959
G1 X75.397 Y86.127 E0.01959
G1 X75.115 Y86.010 E0.00957
G1 X75.207 Y86.456 F10800.000
;TYPE:External perimeter
G1 F1200.000
G1 X75.624 Y86.776 E0.01648
G1 X75.944 Y87.193 E0.01648
G1 X76.145 Y87.679 E0.01648
G1 X76.214 Y88.200 E0.01648
G1 X76.145 Y88.721 E0.01648
G1 X75.944 Y89.207 E0.01648
G1 X75.624 Y89.624 E0.01648
G1 X75.207 Y89.944 E0.01648
G1 X74.721 Y90.145 E0.01648
G1 X74.200 Y90.214 E0.01648
G1 X73.679 Y90.145 E0.01648
G1 X73.193 Y89.944 E0.01648
G1 X72.776 Y89.624 E0.01648
G1 X72.456 Y89.207 E0.01648
G1 X72.255 Y88.721 E0.01648
G1 X72.186 Y88.200 E0.01648
G1 X72.255 Y87.679 E0.01648
G1 X72.456 Y87.193 E0.01648
G1 X72.776 Y86.776 E0.01648
G1 X73.193 Y86.456 E0.01648
G1 X73.679 Y86.255 E0.01648
G1 X74.200 Y86.186 E0.01648
G1 X74.721 Y86.255 E0.01648
G1 X75.151 Y86.433 E0.01460
G1 X75.553 Y86.256 F10800.000
;WIPE_START
G1 F8640.000
G1 X75.624 Y86.776 E-0.13480
G1 X75.944 Y87.193 E-0.12137
G1 X76.145 Y87.679 E-0.12137
G1 X76.214 Y88.200 E-0.12137
G1 X76.145 Y88.721 E-0.12137
G1 X75.944 Y89.207 E-0.12137
G1 X75.895 Y89.270 E-0.01834
;WIPE_END
G1 E-0.04000 F2100.000
G1 Z0.600 F10800.000
G1 X74.200 Y119.786
G1 Z0.200
G1 E0.80000 F2100.000
G1 F1200.000
G1 X74.721 Y119.855 E0.01648
G1 X75.207 Y120.056 E0.01648
G1 X75.624 Y120.376 E0.01648
G1 X75.944 Y120.793 E0.01648
G1 X76.113 Y121.201 E0.01385
G1 X76.145 Y121.279 E0.00263
G1 X76.214 Y121.800 E0.01648
G1 X76.145 Y122.321 E0.01648
G1 X75.944 Y122.807 E0.01648
G1 X75.624 Y123.224 E0.01648
G1 X75.207 Y123.544 E0.01648
G1 X74.721 Y123.745 E0.01648
G1 X74.200 Y123.814 E0.01648
G1 X73.679 Y123.745 E0.01648
G1 X73.193 Y123.544 E0.01648
G1 X72.776 Y123.224 E0.01648
G1 X72.456 Y122.807 E0.01648
G1 X72.255 Y122.321 E0.01648
G1 X72.186 Y121.800 E0.01648
G1 X72.255 Y121.279 E0.01648
G1 X72.456 Y120.793 E0.01648
G1 X72.776 Y120.376 E0.01648
G1 X73.193 Y120.056 E0.01648
G1 X73.679 Y119.855 E0.01648
G1 X74.141 Y119.794 E0.01460
G1 X74.400 Y119.440 F10800.000
;WIPE_START
G1 F8640.000
G1 X74.721 Y119.855 E-0.13480
G1 X75.207 Y120.056 E-0.12137
G1 X75.624 Y120.376 E-0.12137
G1 X75.944 Y120.793 E-0.12137
G1 X76.113 Y121.201 E-0.10202
G1 X76.145 Y121.279 E-0.01935
G1 X76.214 Y121.800 E-0.12137
G1 X76.203 Y121.879 E-0.01834
;WIPE_END
G1 E-0.04000 F2100.000
G1 Z0.600 F10800.000
G1 X71.610 Y122.747
G1 Z0.200
G1 E0.80000 F2100.000
G1 F1200.000
G1 X71.610 Y87.253 E1.11291
G1 X73.253 Y85.610 E0.07284
G1 X176.747 Y85.610 E3.24500
G1 X178.390 Y87.253 E0.07284
G1 X178.390 Y122.747 E1.11291
M73 P3 R23
G1 X176.747 Y124.390 E0.07284
G1 X73.253 Y124.390 E3.24500
M73 P4 R23
G1 X71.652 Y122.790 E0.07096
G1 X71.812 Y122.402 F10800.000
G1 X72.036 Y122.907
;TYPE:Gap fill
;WIDTH:0.360718
G1 F1200.000
G1 X71.940 Y122.425 E0.01300
;WIDTH:0.241533
G1 X71.898 Y121.787 E0.01055
;WIDTH:0.276176
G1 X71.920 Y121.455 E0.00645
;WIDTH:0.31082
G1 X71.941 Y121.124 E0.00740
;WIPE_START
G1 F8640.000
G1 X71.920 Y121.455 E-0.07675
;WIPE_END
G1 E-0.72325 F2100.000
G1 Z0.600 F10800.000
G1 X71.799 Y122.411
G1 Z0.200
G1 E0.80000 F2100.000
;WIDTH:0.152417
G1 F1200.000
G1 X72.218 Y122.958 E0.00628
G1 X72.608 Y123.402 E0.00538
;WIDTH:0.190123
G1 X72.825 Y123.592 E0.00353
;WIDTH:0.234323
G1 X73.062 Y123.797 E0.00498
;WIDTH:0.27446
G1 X73.213 Y123.898 E0.00351
;WIDTH:0.314597
G1 X73.364 Y123.999 E0.00411
;WIDTH:0.354734
G1 X73.516 Y124.100 E0.00472
;WIDTH:0.394872
G1 X73.667 Y124.201 E0.00533
G1 X74.213 Y124.102 F10800.000
;WIDTH:0.276171
G1 F1200.000
G1 X74.545 Y124.080 E0.00645
;WIDTH:0.310816
G1 X74.876 Y124.059 E0.00740
G1 X74.213 Y124.102 F10800.000
;WIDTH:0.241526
G1 F1200.000
G1 X73.612 Y124.064 E0.00995
G1 X73.130 Y124.001 E0.00802
;WIPE_START
G1 F8640.000
G1 X73.612 Y124.064 E-0.11219
G1 X74.213 Y124.102 E-0.13909
;WIPE_END
G1 E-0.54872 F2100.000
G1 Z0.600 F10800.000
G1 X71.941 Y88.876
G1 Z0.200
G1 E0.80000 F2100.000
;WIDTH:0.241533
G1 F1200.000
G1 X71.898 Y88.187 E0.01141
;WIDTH:0.279236
G1 X71.917 Y87.899 E0.00566
;WIDTH:0.31694
G1 X71.936 Y87.612 E0.00657
;WIDTH:0.326562
G1 X71.940 Y87.575 E0.00087
;WIDTH:0.360718
G1 X71.988 Y87.334 E0.00650
;WIDTH:0.394873
G1 X72.036 Y87.093 E0.00720
G1 X72.142 Y87.154 F10800.000
;WIDTH:0.277535
G1 F1200.000
G1 X72.203 Y87.062 E0.00216
;WIDTH:0.152417
G1 X72.608 Y86.598 E0.00560
;WIDTH:0.190124
G1 X72.825 Y86.408 E0.00353
;WIDTH:0.234324
G1 X73.062 Y86.203 E0.00498
;WIDTH:0.274461
G1 X73.213 Y86.102 E0.00351
;WIDTH:0.314598
G1 X73.364 Y86.001 E0.00411
;WIDTH:0.354735
G1 X73.516 Y85.900 E0.00472
;WIDTH:0.394872
G1 X73.667 Y85.799 E0.00533
G1 X74.213 Y85.898 F10800.000
;WIDTH:0.276173
G1 F1200.000
G1 X74.545 Y85.920 E0.00645
;WIDTH:0.310818
G1 X74.876 Y85.941 E0.00740
G1 X74.213 Y85.898 F10800.000
;WIDTH:0.241528
G1 F1200.000
G1 X73.612 Y85.936 E0.00995
G1 X73.130 Y85.999 E0.00802
;WIPE_START
G1 F8640.000
G1 X73.612 Y85.936 E-0.11219
G1 X74.213 Y85.898 E-0.13909
;WIPE_END
G1 E-0.54872 F2100.000
G1 Z0.600 F10800.000
G1 X175.124 Y85.941
G1 Z0.200
G1 E0.80000 F2100.000
G1 F1200.000
G1 X175.813 Y85.898 E0.01141
;WIDTH:0.279233
G1 X176.101 Y85.917 E0.00566
;WIDTH:0.316939
G1 X176.388 Y85.936 E0.00657
;WIDTH:0.326564
G1 X176.870 Y85.999 E0.01146
G1 X176.938 Y86.203 F10800.000
;WIDTH:0.152416
G1 F1200.000
G1 X177.402 Y86.608 E0.00560
;WIDTH:0.190123
G1 X177.592 Y86.825 E0.00353
;WIDTH:0.234324
G1 X177.797 Y87.062 E0.00498
;WIDTH:0.274461
G1 X177.898 Y87.213 E0.00351
;WIDTH:0.314598
G1 X177.999 Y87.364 E0.00411
;WIDTH:0.354735
G1 X178.100 Y87.516 E0.00472
;WIDTH:0.394872
G1 X178.201 Y87.667 E0.00533
G1 X178.102 Y88.213 F10800.000
;WIDTH:0.241531
G1 F1200.000
G1 X178.064 Y87.612 E0.00995
G1 X178.001 Y87.130 E0.00802
;WIPE_START
G1 F8640.000
G1 X178.064 Y87.612 E-0.11219
G1 X178.102 Y88.213 E-0.13909
;WIPE_END
G1 E-0.54872 F2100.000
G1 Z0.600 F10800.000
G1 X178.102 Y88.213
G1 Z0.200
G1 E0.80000 F2100.000
;WIDTH:0.276174
G1 F1200.000
G1 X178.080 Y88.545 E0.00645
;WIDTH:0.310818
G1 X178.059 Y88.876 E0.00740
;WIPE_START
G1 F8640.000
G1 X178.080 Y88.545 E-0.07675
;WIPE_END
G1 E-0.72325 F2100.000
G1 Z0.600 F10800.000
G1 X177.444 Y90.072
G1 Z0.200
G1 E0.80000 F2100.000
;TYPE:Solid infill
;WIDTH:0.421008
G1 F1200.000
G1 X177.730 Y90.358 E0.01271
G1 X177.730 Y90.893 E0.01681
G1 X177.263 Y90.426 E0.02078
G1 X177.140 Y90.520 E0.00488
G1 X176.915 Y90.613 E0.00763
G1 X177.730 Y91.428 E0.03622
G1 X177.730 Y91.962 E0.01681
G1 X176.537 Y90.770 E0.05303
G1 X176.076 Y90.843 E0.01469
G1 X177.730 Y92.497 E0.07355
G1 X177.730 Y93.032 E0.01681
G1 X175.347 Y90.648 E0.10597
;WIPE_START
G1 F8640.000
G1 X177.674 Y92.976 E-0.76000
;WIPE_END
G1 E-0.04000 F2100.000
G1 Z0.600 F10800.000
G1 X173.928 Y86.556
G1 Z0.200
G1 E0.80000 F2100.000
G1 F1200.000
G1 X173.642 Y86.270 E0.01271
G1 X173.107 Y86.270 E0.01681
G1 X173.574 Y86.737 E0.02078
G1 X173.480 Y86.860 E0.00488
G1 X173.387 Y87.085 E0.00763
G1 X172.572 Y86.270 E0.03622
G1 X172.038 Y86.270 E0.01681
G1 X173.230 Y87.463 E0.05303
G1 X173.157 Y87.924 E0.01469
G1 X171.503 Y86.270 E0.07355
G1 X170.968 Y86.270 E0.01681
G1 X173.352 Y88.653 E0.10597
;WIPE_START
G1 F8640.000
G1 X171.024 Y86.326 E-0.76000
;WIPE_END
G1 E-0.04000 F2100.000
G1 Z0.600 F10800.000
G1 X170.264 Y86.100
G1 Z0.200
G1 E0.80000 F2100.000
G1 F1200.000
G1 X173.322 Y89.158 E0.13596
G1 X173.480 Y89.540 E0.01298
G1 X173.906 Y90.094 E0.02199
G1 X174.460 Y90.520 E0.02199
G1 X174.842 Y90.678 E0.01298
G1 X177.730 Y93.566 E0.12841
G1 X177.730 Y94.101 E0.01681
G1 X169.899 Y86.270 E0.34818
G1 X169.364 Y86.270 E0.01681
G1 X177.730 Y94.636 E0.37195
G1 X177.730 Y95.171 E0.01681
G1 X168.829 Y86.270 E0.39573
G1 X168.295 Y86.270 E0.01681
G1 X177.730 Y95.705 E0.41950
G1 X177.730 Y96.240 E0.01681
G1 X167.760 Y86.270 E0.44327
G1 X167.225 Y86.270 E0.01681
G1 X177.730 Y96.775 E0.46704
G1 X177.730 Y97.309 E0.01681
G1 X166.691 Y86.270 E0.49082
G1 X166.156 Y86.270 E0.01681
G1 X177.730 Y97.844 E0.51459
G1 X177.730 Y98.379 E0.01681
G1 X165.621 Y86.270 E0.53836
M73 P5 R23
G1 X165.087 Y86.270 E0.01681
G1 X177.730 Y98.913 E0.56213
G1 X177.730 Y99.448 E0.01681
G1 X164.552 Y86.270 E0.58591
G1 X164.017 Y86.270 E0.01681
G1 X177.730 Y99.983 E0.60968
G1 X177.730 Y100.517 E0.01681
G1 X163.483 Y86.270 E0.63345
G1 X162.948 Y86.270 E0.01681
G1 X177.730 Y101.052 E0.65723
G1 X177.730 Y101.587 E0.01681
G1 X162.413 Y86.270 E0.68100
G1 X161.878 Y86.270 E0.01681
G1 X177.730 Y102.122 E0.70477
G1 X177.730 Y102.656 E0.01681
G1 X161.344 Y86.270 E0.72854
G1 X160.809 Y86.270 E0.01681
G1 X177.730 Y103.191 E0.75232
G1 X177.730 Y103.726 E0.01681
G1 X160.274 Y86.270 E0.77609
G1 X159.740 Y86.270 E0.01681
G1 X177.730 Y104.260 E0.79986
G1 X177.730 Y104.795 E0.01681
G1 X159.205 Y86.270 E0.82363
G1 X158.670 Y86.270 E0.01681
G1 X177.730 Y105.330 E0.84741
M73 P6 R23
G1 X177.730 Y105.864 E0.01681
G1 X158.136 Y86.270 E0.87118
G1 X157.601 Y86.270 E0.01681
