; generated by PrusaSlicer 2.3.1+win64 on 2021-07-03 at 19:33:26 UTC

; 

; external perimeters extrusion width = 0.45mm
; perimeters extrusion width = 0.45mm
; infill extrusion width = 0.45mm
; solid infill extrusion width = 0.45mm
; top infill extrusion width = 0.45mm
; first layer extrusion width = 0.42mm

M73 P0 R19
M201 X9000 Y9000 Z500 E10000 ; sets maximum accelerations, mm/sec^2
M203 X500 Y500 Z12 E120 ; sets maximum feedrates, mm/sec
M204 P2000 R1500 T2000 ; sets acceleration (P, T) and retract acceleration (R), mm/sec^2
M205 X10.00 Y10.00 Z0.20 E4.50 ; sets the jerk limits, mm/sec
M205 S0 T0 ; sets the minimum extruding and travel feed rate, mm/sec
M107
;TYPE:Custom
M862.3 P "MK2.5S" ; printer model check
M862.1 P0.4 ; nozzle diameter check
M115 U3.10.0 ; tell printer latest fw version
G90 ; use absolute coordinates
M83  ; extruder relative mode
M104 S215 ; set extruder temp
M140 S60 ; set bed temp
M190 S60 ; wait for bed temp
M109 S215 ; wait for extruder temp
G28 W ; home all without mesh bed level
G80 ; mesh bed leveling
G1 Y-3.0 F1000.0 ; go outside print area
G92 E0.0
G1 X60.0 E9.0 F1000.0 ; intro line
G1 X100.0 E12.5 F1000.0 ; intro line
G92 E0.0
G21 ; set units to millimeters
G90 ; use absolute coordinates
M83 ; use relative distances for extrusion
M900 K0.05 ; Filament gcode LA 1.5
M900 K30 ; Filament gcode LA 1.0
;LAYER_CHANGE
;Z:0.2
;HEIGHT:0.2
;BEFORE_LAYER_CHANGE
G92 E0.0
;0.2


G1 E-0.80000 F2100.000
G1 Z0.400 F10800.000
;AFTER_LAYER_CHANGE
;0.2
G1 X95.397 Y75.413
G1 Z0.200
G1 E0.80000 F2100.000
M204 S1000
;TYPE:Skirt
;WIDTH:0.42
G1 F1200.000
G1 X96.236 Y74.754 E0.03346
G1 X97.178 Y74.329 E0.03238
G1 X98.409 Y74.125 E0.03912
G1 X151.504 Y74.123 E1.66476
G1 X152.373 Y74.212 E0.02740
G1 X153.042 Y74.405 E0.02182
G1 X153.825 Y74.792 E0.02740
G1 X154.507 Y75.321 E0.02705
G1 X154.978 Y75.843 E0.02206
G1 X155.432 Y76.577 E0.02705
G1 X155.734 Y77.397 E0.02740
G1 X155.853 Y78.044 E0.02063
G1 X155.877 Y110.542 E1.01895
M73 P1 R19
G1 X155.739 Y111.585 E0.03298
G1 X155.268 Y112.724 E0.03865
G1 X154.595 Y113.595 E0.03452
G1 X133.587 Y134.603 E0.93153
G1 X132.777 Y135.238 E0.03227
G1 X131.588 Y135.738 E0.04043
G1 X130.504 Y135.877 E0.03428
G1 X119.390 Y135.875 E0.34848
G1 X118.401 Y135.735 E0.03131
G1 X117.276 Y135.268 E0.03817
G1 X116.413 Y134.603 E0.03417
G1 X95.392 Y113.582 E0.93213
G1 X94.800 Y112.838 E0.02978
G1 X94.392 Y112.010 E0.02895
G1 X94.211 Y111.366 E0.02099
G1 X94.123 Y110.519 E0.02669
G1 X94.123 Y78.477 E1.00465
G1 X94.259 Y77.423 E0.03334
G1 X94.732 Y76.276 E0.03889
G1 X95.360 Y75.461 E0.03228
; printing object Logo Speaker.stl id:1 copy 0
;WIPE_START
G1 F8640.000
G1 X96.236 Y74.754 E-0.25984
G1 X97.178 Y74.329 E-0.23849
G1 X98.296 Y74.143 E-0.26167
;WIPE_END
G1 E-0.04000 F2100.000
G1 Z0.600 F10800.000
G1 X118.402 Y119.990
G1 Z0.200
G1 E0.80000 F2100.000
;TYPE:Perimeter
G1 F1200.000
G1 X118.555 Y119.746 E0.00901
G1 X118.746 Y119.555 E0.00849
G1 X118.975 Y119.411 E0.00849
G1 X119.231 Y119.321 E0.00848
G1 X119.538 Y119.287 E0.00970
G1 X130.476 Y119.288 E0.34294
G1 X130.769 Y119.321 E0.00924
G1 X131.025 Y119.411 E0.00850
G1 X131.268 Y119.564 E0.00901
G1 X131.344 Y119.632 E0.00322
G1 X131.534 Y119.870 E0.00953
G1 X131.592 Y119.974 E0.00374
G1 X131.637 Y120.085 E0.00374
G1 X131.701 Y120.365 E0.00902
G1 X131.713 Y131.478 E0.34845
G1 X131.705 Y131.619 E0.00443
G1 X131.637 Y131.915 E0.00953
G1 X131.598 Y132.010 E0.00322
G1 X131.445 Y132.254 E0.00901
G1 X131.254 Y132.445 E0.00849
G1 X131.025 Y132.589 E0.00849
G1 X130.769 Y132.679 E0.00848
G1 X130.462 Y132.713 E0.00970
G1 X119.522 Y132.713 E0.34300
G1 X119.381 Y132.705 E0.00444
G1 X119.085 Y132.637 E0.00953
G1 X118.990 Y132.598 E0.00322
G1 X118.746 Y132.445 E0.00901
G1 X118.555 Y132.254 E0.00849
G1 X118.411 Y132.025 E0.00849
G1 X118.321 Y131.769 E0.00848
G1 X118.287 Y131.462 E0.00970
G1 X118.287 Y120.522 E0.34300
G1 X118.295 Y120.381 E0.00444
G1 X118.379 Y120.045 E0.01086
G1 X118.031 Y119.901 F10800.000
;TYPE:External perimeter
G1 F1200.000
G1 X118.258 Y119.510 E0.01418
G1 X118.510 Y119.258 E0.01115
G1 X118.811 Y119.069 E0.01115
G1 X119.146 Y118.951 E0.01115
G1 X119.517 Y118.910 E0.01170
G1 X130.497 Y118.911 E0.34427
G1 X130.853 Y118.951 E0.01124
G1 X131.189 Y119.069 E0.01116
G1 X131.495 Y119.261 E0.01134
G1 X131.619 Y119.372 E0.00522
G1 X131.849 Y119.660 E0.01153
G1 X131.932 Y119.810 E0.00540
G1 X131.998 Y119.970 E0.00540
G1 X132.078 Y120.322 E0.01134
G1 X132.090 Y131.489 E0.35011
G1 X132.080 Y131.672 E0.00576
G1 X131.998 Y132.030 E0.01152
G1 X131.934 Y132.184 E0.00522
G1 X131.742 Y132.490 E0.01134
G1 X131.490 Y132.742 E0.01115
G1 X131.189 Y132.931 E0.01115
G1 X130.854 Y133.049 E0.01115
G1 X130.483 Y133.090 E0.01170
G1 X119.512 Y133.090 E0.34399
G1 X119.328 Y133.080 E0.00576
G1 X118.970 Y132.998 E0.01152
G1 X118.816 Y132.934 E0.00522
G1 X118.510 Y132.742 E0.01134
G1 X118.258 Y132.490 E0.01115
G1 X118.069 Y132.189 E0.01115
G1 X117.951 Y131.854 E0.01115
G1 X117.910 Y131.483 E0.01170
G1 X117.910 Y120.512 E0.34399
M73 P2 R19
G1 X117.920 Y120.328 E0.00576
G1 X118.008 Y119.956 E0.01198
G1 X118.428 Y119.858 F10800.000
;WIPE_START
G1 F8640.000
G1 X118.258 Y119.510 E-0.11820
G1 X118.510 Y119.258 E-0.08213
G1 X118.811 Y119.069 E-0.08213
G1 X119.146 Y118.951 E-0.08211
G1 X119.517 Y118.910 E-0.08616
G1 X120.857 Y118.910 E-0.30927
;WIPE_END
G1 E-0.04000 F2100.000
G1 Z0.600 F10800.000
G1 X131.559 Y120.248
G1 Z0.200
G1 E0.80000 F2100.000
;TYPE:Solid infill
;WIDTH:0.421208
G1 F1200.000
G1 X131.097 Y119.790 E0.02043
G1 X130.901 Y119.667 E0.00729
G1 X130.705 Y119.599 E0.00653
G1 X130.347 Y119.571 E0.01131
G1 X131.419 Y120.643 E0.04769
G1 X131.419 Y121.178 E0.01685
G1 X129.812 Y119.571 E0.07152
G1 X129.277 Y119.571 E0.01683
G1 X131.420 Y121.714 E0.09534
G1 X131.421 Y122.249 E0.01685
G1 X128.742 Y119.571 E0.11917
G1 X128.207 Y119.571 E0.01683
G1 X131.421 Y122.785 E0.14299
G1 X131.422 Y123.321 E0.01685
G1 X127.672 Y119.570 E0.16682
G1 X127.137 Y119.570 E0.01683
G1 X131.422 Y123.856 E0.19064
G1 X131.423 Y124.392 E0.01685
G1 X126.602 Y119.570 E0.21446
G1 X126.067 Y119.570 E0.01683
G1 X131.423 Y124.927 E0.23829
G1 X131.424 Y125.463 E0.01685
G1 X125.532 Y119.570 E0.26211
G1 X124.996 Y119.570 E0.01683
G1 X131.424 Y125.998 E0.28594
G1 X131.425 Y126.534 E0.01685
G1 X124.461 Y119.570 E0.30976
G1 X123.926 Y119.570 E0.01683
G1 X131.426 Y127.069 E0.33359
G1 X131.426 Y127.605 E0.01685
G1 X123.391 Y119.570 E0.35741
G1 X122.856 Y119.570 E0.01683
G1 X131.427 Y128.140 E0.38124
G1 X131.427 Y128.676 E0.01685
G1 X122.321 Y119.570 E0.40506
G1 X121.786 Y119.570 E0.01683
G1 X131.428 Y129.211 E0.42889
G1 X131.428 Y129.747 E0.01685
G1 X121.251 Y119.570 E0.45271
G1 X120.716 Y119.570 E0.01683
G1 X131.429 Y130.283 E0.47653
G1 X131.429 Y130.818 E0.01685
G1 X120.181 Y119.570 E0.50036
G1 X119.646 Y119.570 E0.01683
G1 X131.430 Y131.354 E0.52418
G1 X131.424 Y131.579 E0.00711
G1 X131.368 Y131.826 E0.00796
G1 X119.180 Y119.639 E0.54214
M73 P3 R19
G1 X119.099 Y119.667 E0.00271
G1 X118.924 Y119.777 E0.00651
G1 X118.854 Y119.847 E0.00311
G1 X131.153 Y132.146 E0.54710
G1 X131.076 Y132.223 E0.00340
G1 X130.829 Y132.358 E0.00886
G1 X118.636 Y120.164 E0.54242
G1 X118.576 Y120.421 E0.00828
G1 X118.570 Y120.633 E0.00670
G1 X130.367 Y132.430 E0.52476
G1 X129.832 Y132.430 E0.01683
G1 X118.570 Y121.168 E0.50096
G1 X118.570 Y121.703 E0.01683
G1 X129.297 Y132.430 E0.47717
G1 X128.762 Y132.430 E0.01683
G1 X118.570 Y122.238 E0.45337
G1 X118.570 Y122.773 E0.01683
G1 X128.227 Y132.430 E0.42957
G1 X127.692 Y132.430 E0.01683
G1 X118.570 Y123.308 E0.40577
G1 X118.570 Y123.843 E0.01683
G1 X127.157 Y132.430 E0.38198
G1 X126.622 Y132.430 E0.01683
G1 X118.570 Y124.378 E0.35818
G1 X118.570 Y124.913 E0.01683
G1 X126.087 Y132.430 E0.33438
G1 X125.552 Y132.430 E0.01683
G1 X118.570 Y125.448 E0.31058
G1 X118.570 Y125.983 E0.01683
G1 X125.017 Y132.430 E0.28678
G1 X124.482 Y132.430 E0.01683
G1 X118.570 Y126.518 E0.26299
G1 X118.570 Y127.053 E0.01683
G1 X123.947 Y132.430 E0.23919
G1 X123.412 Y132.430 E0.01683
G1 X118.570 Y127.588 E0.21539
G1 X118.570 Y128.123 E0.01683
G1 X122.877 Y132.430 E0.19159
G1 X122.342 Y132.430 E0.01683
G1 X118.570 Y128.658 E0.16779
G1 X118.570 Y129.193 E0.01683
G1 X121.807 Y132.430 E0.14400
M73 P4 R19
G1 X121.272 Y132.430 E0.01683
G1 X118.570 Y129.728 E0.12020
G1 X118.570 Y130.263 E0.01683
G1 X120.737 Y132.430 E0.09640
G1 X120.202 Y132.430 E0.01683
G1 X118.570 Y130.798 E0.07260
G1 X118.570 Y131.333 E0.01683
G1 X119.667 Y132.430 E0.04880
G1 X119.421 Y132.424 E0.00776
G1 X119.120 Y132.346 E0.00977
G1 X118.926 Y132.224 E0.00720
G1 X118.431 Y131.729 E0.02203
; stop printing object Logo Speaker.stl id:1 copy 0
; printing object Logo Spotify v1.stl id:2 copy 0
;WIPE_START
G1 F8640.000
G1 X118.926 Y132.224 E-0.16169
G1 X119.120 Y132.346 E-0.05287
G1 X119.421 Y132.424 E-0.07174
G1 X119.667 Y132.430 E-0.05693
G1 X118.570 Y131.333 E-0.35826
G1 X118.570 Y131.080 E-0.05851
;WIPE_END
G1 E-0.04000 F2100.000
G1 Z0.600 F10800.000
G1 X118.842 Y111.516
G1 Z0.200
G1 E0.80000 F2100.000
;TYPE:Perimeter
;WIDTH:0.42
G1 F1200.000
G1 X118.758 Y111.457 E0.00322
G1 X118.555 Y111.254 E0.00901
G1 X118.411 Y111.025 E0.00849
G1 X118.321 Y110.769 E0.00848
G1 X118.287 Y110.462 E0.00970
G1 X118.287 Y99.522 E0.34300
G1 X118.295 Y99.381 E0.00444
G1 X118.363 Y99.085 E0.00953
G1 X118.402 Y98.990 E0.00322
G1 X118.555 Y98.746 E0.00901
G1 X118.746 Y98.555 E0.00849
G1 X118.975 Y98.411 E0.00849
G1 X119.231 Y98.321 E0.00848
G1 X119.538 Y98.287 E0.00970
G1 X130.476 Y98.288 E0.34294
G1 X130.769 Y98.321 E0.00924
G1 X131.039 Y98.416 E0.00898
G1 X131.136 Y98.470 E0.00350
G1 X131.355 Y98.645 E0.00877
G1 X131.534 Y98.870 E0.00902
G1 X131.592 Y98.974 E0.00374
G1 X131.637 Y99.085 E0.00374
G1 X131.701 Y99.365 E0.00902
G1 X131.713 Y110.478 E0.34845
G1 X131.705 Y110.619 E0.00443
G1 X131.637 Y110.915 E0.00953
G1 X131.598 Y111.010 E0.00322
G1 X131.445 Y111.254 E0.00901
G1 X131.254 Y111.445 E0.00849
G1 X131.025 Y111.589 E0.00849
G1 X130.769 Y111.679 E0.00848
G1 X130.462 Y111.713 E0.00970
G1 X119.522 Y111.713 E0.34300
G1 X119.381 Y111.705 E0.00443
G1 X119.101 Y111.641 E0.00901
G1 X118.896 Y111.542 E0.00713
G1 X118.650 Y111.842 F10800.000
;TYPE:External perimeter
G1 F1200.000
G1 X118.514 Y111.746 E0.00522
G1 X118.258 Y111.490 E0.01134
G1 X118.069 Y111.189 E0.01115
G1 X117.951 Y110.854 E0.01115
G1 X117.910 Y110.483 E0.01170
G1 X117.910 Y99.512 E0.34399
G1 X117.920 Y99.328 E0.00576
G1 X118.002 Y98.970 E0.01153
G1 X118.066 Y98.816 E0.00522
G1 X118.258 Y98.510 E0.01134
G1 X118.510 Y98.258 E0.01115
G1 X118.811 Y98.069 E0.01115
G1 X119.146 Y97.951 E0.01115
G1 X119.517 Y97.910 E0.01170
G1 X130.497 Y97.911 E0.34427
G1 X130.853 Y97.951 E0.01124
G1 X131.194 Y98.071 E0.01133
G1 X131.347 Y98.156 E0.00550
G1 X131.623 Y98.377 E0.01107
G1 X131.849 Y98.660 E0.01134
G1 X131.932 Y98.810 E0.00540
G1 X131.998 Y98.970 E0.00540
G1 X132.078 Y99.322 E0.01134
G1 X132.090 Y110.489 E0.35011
M73 P4 R18
G1 X132.080 Y110.672 E0.00576
G1 X131.998 Y111.030 E0.01153
G1 X131.934 Y111.184 E0.00522
G1 X131.742 Y111.490 E0.01134
G1 X131.490 Y111.742 E0.01115
G1 X131.189 Y111.931 E0.01115
G1 X130.854 Y112.049 E0.01115
G1 X130.483 Y112.090 E0.01170
G1 X119.512 Y112.090 E0.34399
G1 X119.328 Y112.080 E0.00576
G1 X118.975 Y111.999 E0.01134
G1 X118.704 Y111.868 E0.00946
G1 X118.650 Y111.676 F10800.000
;WIPE_START
G1 F8640.000
G1 X118.514 Y111.746 E-0.05213
G1 X118.258 Y111.490 E-0.08350
G1 X118.069 Y111.189 E-0.08213
G1 X117.951 Y110.854 E-0.08211
G1 X117.910 Y110.483 E-0.08616
G1 X117.910 Y108.863 E-0.37397
;WIPE_END
G1 E-0.04000 F2100.000
G1 Z0.600 F10800.000
G1 X130.174 Y98.401
G1 Z0.200
G1 E0.80000 F2100.000
;TYPE:Solid infill
;WIDTH:0.421163
G1 F1200.000
G1 X131.419 Y99.646 E0.05536
G1 X131.419 Y100.181 E0.01684
G1 X129.809 Y98.571 E0.07164
G1 X129.274 Y98.571 E0.01682
G1 X131.420 Y100.717 E0.09545
G1 X131.421 Y101.252 E0.01684
G1 X128.739 Y98.571 E0.11927
G1 X128.204 Y98.571 E0.01682
G1 X131.421 Y101.788 E0.14309
G1 X131.422 Y102.323 E0.01684
G1 X127.669 Y98.570 E0.16691
G1 X127.134 Y98.570 E0.01682
G1 X131.422 Y102.859 E0.19073
G1 X131.423 Y103.394 E0.01684
G1 X126.599 Y98.570 E0.21455
G1 X126.064 Y98.570 E0.01682
G1 X131.423 Y103.930 E0.23837
G1 X131.424 Y104.465 E0.01684
G1 X125.529 Y98.570 E0.26219
G1 X124.994 Y98.570 E0.01682
G1 X131.424 Y105.000 E0.28600
G1 X131.425 Y105.536 E0.01684
G1 X124.459 Y98.570 E0.30982
G1 X123.924 Y98.570 E0.01682
G1 X131.426 Y106.071 E0.33364
M73 P5 R18
G1 X131.426 Y106.607 E0.01684
G1 X123.389 Y98.570 E0.35746
G1 X122.854 Y98.570 E0.01682
G1 X131.427 Y107.142 E0.38128
G1 X131.427 Y107.678 E0.01684
G1 X122.319 Y98.570 E0.40510
G1 X121.784 Y98.570 E0.01682
G1 X131.428 Y108.213 E0.42892
G1 X131.428 Y108.749 E0.01684
G1 X121.250 Y98.570 E0.45274
G1 X120.715 Y98.570 E0.01682
G1 X131.429 Y109.284 E0.47655
G1 X131.429 Y109.820 E0.01684
G1 X120.180 Y98.570 E0.50037
G1 X119.645 Y98.570 E0.01682
G1 X131.430 Y110.355 E0.52419
G1 X131.424 Y110.579 E0.00706
G1 X131.367 Y110.827 E0.00800
G1 X119.179 Y98.639 E0.54212
G1 X119.099 Y98.667 E0.00267
G1 X118.924 Y98.777 E0.00651
G1 X118.853 Y98.848 E0.00314
G1 X131.152 Y111.147 E0.54704
G1 X131.076 Y111.223 E0.00336
G1 X130.901 Y111.333 E0.00651
G1 X130.828 Y111.358 E0.00242
G1 X118.635 Y99.165 E0.54232
G1 X118.576 Y99.421 E0.00824
G1 X118.570 Y99.635 E0.00674
G1 X130.365 Y111.430 E0.52464
G1 X129.830 Y111.430 E0.01682
G1 X118.570 Y100.170 E0.50085
G1 X118.570 Y100.705 E0.01682
G1 X129.295 Y111.430 E0.47706
G1 X128.760 Y111.430 E0.01682
G1 X118.570 Y101.240 E0.45326
M73 P6 R18
G1 X118.570 Y101.774 E0.01682
G1 X128.226 Y111.430 E0.42947
G1 X127.691 Y111.430 E0.01682
G1 X118.570 Y102.309 E0.40568
G1 X118.570 Y102.844 E0.01682
G1 X127.156 Y111.430 E0.38189
G1 X126.621 Y111.430 E0.01682
G1 X118.570 Y103.379 E0.35809
G1 X118.570 Y103.914 E0.01682
G1 X126.086 Y111.430 E0.33430
G1 X125.551 Y111.430 E0.01682
G1 X118.570 Y104.449 E0.31051
G1 X118.570 Y104.984 E0.01682
G1 X125.016 Y111.430 E0.28672
G1 X124.481 Y111.430 E0.01682
G1 X118.570 Y105.519 E0.26292
G1 X118.570 Y106.054 E0.01682
G1 X123.946 Y111.430 E0.23913
G1 X123.411 Y111.430 E0.01682
G1 X118.570 Y106.589 E0.21534
G1 X118.570 Y107.124 E0.01682
G1 X122.876 Y111.430 E0.19155
G1 X122.341 Y111.430 E0.01682
G1 X118.570 Y107.659 E0.16776
G1 X118.570 Y108.193 E0.01682
G1 X121.807 Y111.430 E0.14396
G1 X121.272 Y111.430 E0.01682
G1 X118.570 Y108.728 E0.12017
G1 X118.570 Y109.263 E0.01682
G1 X120.737 Y111.430 E0.09638
G1 X120.202 Y111.430 E0.01682
G1 X118.570 Y109.798 E0.07259
G1 X118.570 Y110.333 E0.01682
G1 X119.667 Y111.430 E0.04879
G1 X119.421 Y111.424 E0.00775
G1 X119.195 Y111.372 E0.00728
G1 X118.986 Y111.272 E0.00728
G1 X118.431 Y110.729 E0.02443
; stop printing object Logo Spotify v1.stl id:2 copy 0
; printing object Logo Windows.stl id:6 copy 0
;WIPE_START
G1 F8640.000
G1 X118.986 Y111.272 E-0.17933
G1 X119.195 Y111.372 E-0.05348
G1 X119.421 Y111.424 E-0.05348
G1 X119.667 Y111.430 E-0.05691
G1 X118.570 Y110.333 E-0.35823
G1 X118.570 Y110.079 E-0.05857
;WIPE_END
G1 E-0.04000 F2100.000
G1 Z0.600 F10800.000
G1 X140.115 Y111.564
G1 Z0.200
G1 E0.80000 F2100.000
;TYPE:Perimeter
;WIDTH:0.42
G1 F1200.000
G1 X140.001 Y111.515 E0.00389
G1 X139.796 Y111.385 E0.00761
G1 X139.616 Y111.205 E0.00798
G1 X139.482 Y110.990 E0.00794
G1 X139.398 Y110.752 E0.00793
G1 X139.366 Y110.462 E0.00915
G1 X139.366 Y99.522 E0.34300
G1 X139.373 Y99.390 E0.00416
G1 X139.436 Y99.115 E0.00883
G1 X139.485 Y99.001 E0.00389
G1 X139.615 Y98.796 E0.00761
G1 X139.795 Y98.616 E0.00798
G1 X140.010 Y98.482 E0.00794
G1 X140.248 Y98.398 E0.00793
G1 X140.538 Y98.366 E0.00915
G1 X151.497 Y98.368 E0.34361
G1 X151.750 Y98.398 E0.00799
G1 X152.002 Y98.486 E0.00836
G1 X152.109 Y98.547 E0.00389
G1 X152.311 Y98.710 E0.00813
G1 X152.518 Y99.010 E0.01142
G1 X152.623 Y99.357 E0.01138
G1 X152.634 Y110.478 E0.34869
G1 X152.627 Y110.610 E0.00415
G1 X152.564 Y110.885 E0.00883
G1 X152.515 Y110.999 E0.00389
G1 X152.385 Y111.204 E0.00761
G1 X152.205 Y111.384 E0.00798
G1 X151.990 Y111.518 E0.00794
G1 X151.752 Y111.602 E0.00793
G1 X151.462 Y111.634 E0.00915
G1 X140.522 Y111.634 E0.34300
G1 X140.390 Y111.627 E0.00416
