; generated by PrusaSlicer 2.3.1+win64 on 2021-07-03 at 17:40:42 UTC

; 

; external perimeters extrusion width = 0.45mm
; perimeters extrusion width = 0.45mm
; infill extrusion width = 0.45mm
; solid infill extrusion width = 0.45mm
; top infill extrusion width = 0.40mm
; first layer extrusion width = 0.42mm

M73 P0 R163
M201 X9000 Y9000 Z500 E10000 ; sets maximum accelerations, mm/sec^2
M203 X500 Y500 Z12 E120 ; sets maximum feedrates, mm/sec
M204 P2000 R1500 T2000 ; sets acceleration (P, T) and retract acceleration (R), mm/sec^2
M205 X10.00 Y10.00 Z0.20 E4.50 ; sets the jerk limits, mm/sec
M205 S0 T0 ; sets the minimum extruding and travel feed rate, mm/sec
M107
;TYPE:Custom
M862.3 P "MK2.5S" ; printer model check
M862.1 P0.4 ; nozzle diameter check
M115 U3.10.0 ; tell printer latest fw version
G90 ; use absolute coordinates
M83  ; extruder relative mode
M104 S215 ; set extruder temp
M140 S60 ; set bed temp
M190 S60 ; wait for bed temp
M109 S215 ; wait for extruder temp
G28 W ; home all without mesh bed level
G80 ; mesh bed leveling
G1 Y-3.0 F1000.0 ; go outside print area
G92 E0.0
G1 X60.0 E9.0 F1000.0 ; intro line
G1 X100.0 E12.5 F1000.0 ; intro line
G92 E0.0
G21 ; set units to millimeters
G90 ; use absolute coordinates
M83 ; use relative distances for extrusion
M900 K0.05 ; Filament gcode LA 1.5
M900 K30 ; Filament gcode LA 1.0
;LAYER_CHANGE
;Z:0.2
;HEIGHT:0.2
;BEFORE_LAYER_CHANGE
G92 E0.0
;0.2


G1 E-0.80000 F2100.000
G1 Z0.400 F10800.000
;AFTER_LAYER_CHANGE
;0.2
G1 X71.329 Y81.270
G1 Z0.200
G1 E0.80000 F2100.000
M204 S1000
;TYPE:Skirt
;WIDTH:0.42
G1 F1200.000
G1 X72.195 Y81.105 E0.02767
G1 X177.804 Y81.105 E3.31129
G1 X178.706 Y81.284 E0.02884
G1 X179.475 Y81.795 E0.02896
G1 X182.388 Y84.732 E0.12970
G1 X182.758 Y85.403 E0.02402
G1 X182.895 Y86.157 E0.02402
G1 X182.883 Y124.036 E1.18767
G1 X182.693 Y124.759 E0.02343
G1 X182.288 Y125.387 E0.02343
G1 X179.415 Y128.262 E0.12745
G1 X178.671 Y128.730 E0.02755
G1 X177.805 Y128.895 E0.02767
G1 X72.112 Y128.893 E3.31392
G1 X71.322 Y128.727 E0.02532
G1 X70.636 Y128.308 E0.02520
G1 X67.738 Y125.415 E0.12840
G1 X67.270 Y124.671 E0.02755
G1 X67.105 Y123.809 E0.02755
G1 X67.115 Y85.979 E1.18612
M73 P0 R162
G1 X67.304 Y85.248 E0.02367
G1 X67.712 Y84.613 E0.02367
G1 X70.585 Y81.738 E0.12745
G1 X71.278 Y81.302 E0.02567
; printing object Deej oXiVanisher Remix Case.stl id:0 copy 0
;WIPE_START
G1 F8640.000
G1 X72.195 Y81.105 E-0.21670
G1 X74.548 Y81.105 E-0.54330
;WIPE_END
G1 E-0.04000 F2100.000
G1 Z0.600 F10800.000
G1 X125.980 Y109.003
G1 Z0.200
G1 E0.80000 F2100.000
;TYPE:Perimeter
G1 F1200.000
G1 X126.424 Y108.424 E0.02287
G1 X127.003 Y107.980 E0.02287
G1 X127.677 Y107.701 E0.02287
G1 X128.348 Y107.613 E0.02124
G1 X139.652 Y107.613 E0.35440
G1 X140.323 Y107.701 E0.02124
G1 X140.997 Y107.980 E0.02287
G1 X141.576 Y108.424 E0.02287
G1 X142.020 Y109.003 E0.02287
G1 X142.299 Y109.677 E0.02287
G1 X142.387 Y110.348 E0.02124
G1 X142.387 Y121.652 E0.35440
G1 X142.299 Y122.323 E0.02124
G1 X142.020 Y122.997 E0.02287
G1 X141.576 Y123.576 E0.02287
G1 X140.997 Y124.020 E0.02287
G1 X140.323 Y124.299 E0.02287
G1 X139.652 Y124.387 E0.02124
G1 X128.348 Y124.387 E0.35440
G1 X127.677 Y124.299 E0.02124
G1 X127.003 Y124.020 E0.02287
G1 X126.424 Y123.576 E0.02287
G1 X125.980 Y122.997 E0.02287
G1 X125.701 Y122.323 E0.02287
G1 X125.613 Y121.652 E0.02124
G1 X125.613 Y110.348 E0.35440
G1 X125.701 Y109.677 E0.02124
G1 X125.957 Y109.058 E0.02099
G1 X126.306 Y109.203 F10800.000
;TYPE:External perimeter
G1 F1200.000
G1 X126.693 Y108.693 E0.02007
G1 X127.193 Y108.310 E0.01976
G1 X127.775 Y108.069 E0.01976
G1 X128.373 Y107.990 E0.01891
G1 X139.627 Y107.990 E0.35285
G1 X140.225 Y108.069 E0.01891
G1 X140.807 Y108.310 E0.01976
G1 X141.307 Y108.693 E0.01976
G1 X141.690 Y109.193 E0.01976
G1 X141.931 Y109.775 E0.01976
G1 X142.010 Y110.373 E0.01891
G1 X142.010 Y121.627 E0.35285
G1 X141.931 Y122.225 E0.01891
G1 X141.690 Y122.807 E0.01976
G1 X141.307 Y123.307 E0.01976
G1 X140.807 Y123.690 E0.01976
G1 X140.225 Y123.931 E0.01976
G1 X139.627 Y124.010 E0.01891
G1 X128.373 Y124.010 E0.35285
G1 X127.775 Y123.931 E0.01891
G1 X127.193 Y123.690 E0.01975
G1 X126.693 Y123.307 E0.01976
G1 X126.310 Y122.807 E0.01976
G1 X126.069 Y122.225 E0.01976
G1 X125.990 Y121.627 E0.01891
G1 X125.990 Y110.373 E0.35285
G1 X126.069 Y109.775 E0.01891
G1 X126.283 Y109.258 E0.01755
G1 X126.105 Y108.857 F10800.000
;WIPE_START
G1 F8640.000
G1 X126.693 Y108.693 E-0.16123
G1 X127.193 Y108.310 E-0.14548
G1 X127.775 Y108.069 E-0.14548
G1 X128.373 Y107.990 E-0.13922
G1 X129.103 Y107.990 E-0.16858
;WIPE_END
G1 E-0.04000 F2100.000
G1 Z0.600 F10800.000
G1 X131.995 Y98.736
G1 Z0.200
G1 E0.80000 F2100.000
;TYPE:Perimeter
G1 F1200.000
G1 X131.271 Y98.245 E0.02743
G1 X130.639 Y97.585 E0.02865
G1 X130.142 Y96.758 E0.03025
G1 X129.854 Y95.889 E0.02870
G1 X129.760 Y94.977 E0.02875
G1 X129.864 Y94.066 E0.02875
G1 X130.161 Y93.199 E0.02875
G1 X130.638 Y92.416 E0.02875
G1 X131.272 Y91.754 E0.02875
G1 X132.034 Y91.243 E0.02875
G1 X132.886 Y90.909 E0.02870
G1 X133.749 Y90.767 E0.02743
G1 X134.664 Y90.812 E0.02870
G1 X135.550 Y91.053 E0.02880
G1 X136.397 Y91.502 E0.03006
G1 X137.093 Y92.100 E0.02875
G1 X137.622 Y92.796 E0.02743
G1 X138.011 Y93.625 E0.02870
G1 X138.213 Y94.521 E0.02880
G1 X138.213 Y95.479 E0.03006
G1 X138.011 Y96.375 E0.02880
G1 X137.621 Y97.205 E0.02875
G1 X137.063 Y97.932 E0.02875
G1 X136.361 Y98.522 E0.02875
G1 X135.548 Y98.947 E0.02875
G1 X134.664 Y99.188 E0.02875
G1 X133.748 Y99.233 E0.02875
G1 X132.844 Y99.079 E0.02875
G1 X132.051 Y98.759 E0.02682
G1 X132.192 Y98.409 F10800.000
;TYPE:External perimeter
G1 F1200.000
G1 X131.516 Y97.955 E0.02554
G1 X130.939 Y97.353 E0.02614
G1 X130.487 Y96.602 E0.02749
G1 X130.225 Y95.810 E0.02616
G1 X130.139 Y94.979 E0.02618
G1 X130.234 Y94.150 E0.02618
G1 X130.505 Y93.360 E0.02618
G1 X130.939 Y92.647 E0.02618
G1 X131.516 Y92.044 E0.02618
G1 X132.210 Y91.579 E0.02618
G1 X132.986 Y91.275 E0.02616
G1 X133.771 Y91.146 E0.02492
G1 X134.604 Y91.187 E0.02616
G1 X135.410 Y91.406 E0.02619
G1 X136.183 Y91.816 E0.02743
G1 X136.817 Y92.360 E0.02618
G1 X137.298 Y92.992 E0.02492
G1 X137.652 Y93.748 E0.02616
G1 X137.836 Y94.563 E0.02619
G1 X137.836 Y95.437 E0.02743
G1 X137.652 Y96.252 E0.02619
G1 X137.297 Y97.008 E0.02618
G1 X136.789 Y97.670 E0.02618
G1 X136.150 Y98.207 E0.02618
G1 X135.410 Y98.594 E0.02618
G1 X134.604 Y98.813 E0.02618
G1 X133.770 Y98.854 E0.02618
G1 X132.947 Y98.715 E0.02618
G1 X132.248 Y98.432 E0.02365
G1 X131.854 Y98.622 F10800.000
;WIPE_START
G1 F8640.000
G1 X131.516 Y97.955 E-0.20165
G1 X130.939 Y97.353 E-0.19252
G1 X130.487 Y96.602 E-0.20248
G1 X130.265 Y95.930 E-0.16335
;WIPE_END
G1 E-0.04000 F2100.000
G1 Z0.600 F10800.000
G1 X147.854 Y95.891
G1 Z0.200
G1 E0.80000 F2100.000
;TYPE:Perimeter
G1 F1200.000
G1 X147.760 Y94.977 E0.02880
G1 X147.864 Y94.066 E0.02875
G1 X148.161 Y93.199 E0.02875
G1 X148.637 Y92.417 E0.02870
G1 X149.239 Y91.782 E0.02743
G1 X149.994 Y91.264 E0.02870
G1 X150.844 Y90.921 E0.02875
G1 X151.749 Y90.767 E0.02880
G1 X152.707 Y90.819 E0.03006
G1 X153.590 Y91.069 E0.02880
G1 X154.398 Y91.503 E0.02875
G1 X155.094 Y92.101 E0.02875
G1 X155.645 Y92.833 E0.02875
G1 X156.025 Y93.668 E0.02875
G1 X156.217 Y94.563 E0.02870
G1 X156.217 Y95.437 E0.02743
G1 X156.025 Y96.332 E0.02870
G1 X155.645 Y97.167 E0.02875
G1 X155.093 Y97.901 E0.02880
G1 X154.362 Y98.521 E0.03006
G1 X153.548 Y98.947 E0.02880
G1 X152.664 Y99.188 E0.02875
G1 X151.748 Y99.233 E0.02875
G1 X150.844 Y99.079 E0.02875
G1 X149.995 Y98.736 E0.02870
G1 X149.271 Y98.245 E0.02743
G1 X148.638 Y97.584 E0.02870
G1 X148.161 Y96.800 E0.02880
G1 X147.874 Y95.948 E0.02818
G1 X148.231 Y95.827 F10800.000
;TYPE:External perimeter
G1 F1200.000
G1 X148.139 Y94.979 E0.02674
G1 X148.234 Y94.150 E0.02618
G1 X148.505 Y93.360 E0.02618
G1 X148.939 Y92.648 E0.02616
G1 X149.485 Y92.071 E0.02492
G1 X150.173 Y91.599 E0.02616
G1 X150.947 Y91.285 E0.02618
G1 X151.771 Y91.146 E0.02619
G1 X152.644 Y91.193 E0.02743
G1 X153.448 Y91.421 E0.02619
G1 X154.184 Y91.816 E0.02618
G1 X154.817 Y92.360 E0.02618
G1 X155.319 Y93.027 E0.02618
G1 X155.665 Y93.787 E0.02618
G1 X155.840 Y94.603 E0.02616
G1 X155.840 Y95.397 E0.02492
G1 X155.665 Y96.213 E0.02616
G1 X155.319 Y96.973 E0.02618
G1 X154.817 Y97.641 E0.02619
G1 X154.150 Y98.207 E0.02743
G1 X153.410 Y98.594 E0.02619
G1 X152.604 Y98.813 E0.02618
G1 X151.770 Y98.854 E0.02618
G1 X150.947 Y98.715 E0.02618
G1 X150.174 Y98.402 E0.02616
G1 X149.516 Y97.955 E0.02492
G1 X148.939 Y97.353 E0.02616
G1 X148.504 Y96.639 E0.02619
G1 X148.250 Y95.884 E0.02498
G1 X147.850 Y95.707 F10800.000
;WIPE_START
G1 F8640.000
G1 X148.139 Y94.979 E-0.21050
G1 X148.234 Y94.150 E-0.19277
G1 X148.505 Y93.360 E-0.19277
G1 X148.874 Y92.754 E-0.16396
;WIPE_END
G1 E-0.04000 F2100.000
G1 Z0.600 F10800.000
G1 X145.677 Y107.701
G1 Z0.200
G1 E0.80000 F2100.000
;TYPE:Perimeter
G1 F1200.000
G1 X146.348 Y107.613 E0.02124
G1 X157.652 Y107.613 E0.35440
G1 X158.323 Y107.701 E0.02124
G1 X158.997 Y107.980 E0.02287
G1 X159.576 Y108.424 E0.02287
G1 X160.020 Y109.003 E0.02287
G1 X160.299 Y109.677 E0.02287
G1 X160.387 Y110.348 E0.02124
G1 X160.387 Y121.652 E0.35440
G1 X160.299 Y122.323 E0.02124
G1 X160.020 Y122.997 E0.02287
G1 X159.576 Y123.576 E0.02287
G1 X158.997 Y124.020 E0.02287
G1 X158.323 Y124.299 E0.02287
G1 X157.652 Y124.387 E0.02124
G1 X146.348 Y124.387 E0.35440
G1 X145.677 Y124.299 E0.02124
G1 X145.003 Y124.020 E0.02287
G1 X144.424 Y123.576 E0.02287
G1 X143.980 Y122.997 E0.02287
G1 X143.701 Y122.323 E0.02287
G1 X143.613 Y121.652 E0.02124
G1 X143.613 Y110.348 E0.35440
G1 X143.701 Y109.677 E0.02124
G1 X143.980 Y109.003 E0.02287
G1 X144.424 Y108.424 E0.02287
G1 X145.003 Y107.980 E0.02287
G1 X145.621 Y107.724 E0.02099
G1 X145.766 Y108.073 F10800.000
;TYPE:External perimeter
G1 F1200.000
G1 X146.373 Y107.990 E0.01922
G1 X157.627 Y107.990 E0.35285
G1 X158.225 Y108.069 E0.01891
G1 X158.807 Y108.310 E0.01976
G1 X159.307 Y108.693 E0.01975
G1 X159.690 Y109.193 E0.01976
G1 X159.931 Y109.775 E0.01976
G1 X160.010 Y110.373 E0.01891
G1 X160.010 Y121.627 E0.35285
G1 X159.931 Y122.225 E0.01891
G1 X159.690 Y122.807 E0.01976
G1 X159.307 Y123.307 E0.01976
G1 X158.807 Y123.690 E0.01975
G1 X158.225 Y123.931 E0.01976
G1 X157.627 Y124.010 E0.01891
G1 X146.373 Y124.010 E0.35285
G1 X145.775 Y123.931 E0.01891
G1 X145.193 Y123.690 E0.01975
G1 X144.693 Y123.307 E0.01976
G1 X144.310 Y122.807 E0.01976
G1 X144.069 Y122.225 E0.01976
G1 X143.990 Y121.627 E0.01891
G1 X143.990 Y110.373 E0.35285
G1 X144.069 Y109.775 E0.01891
G1 X144.310 Y109.193 E0.01976
G1 X144.693 Y108.693 E0.01976
G1 X145.193 Y108.310 E0.01976
G1 X145.710 Y108.096 E0.01755
G1 X145.868 Y107.686 F10800.000
;WIPE_START
G1 F8640.000
G1 X146.373 Y107.990 E-0.15497
G1 X148.993 Y107.990 E-0.60503
;WIPE_END
G1 E-0.04000 F2100.000
G1 Z0.600 F10800.000
G1 X161.701 Y109.677
G1 Z0.200
G1 E0.80000 F2100.000
;TYPE:Perimeter
G1 F1200.000
G1 X161.980 Y109.003 E0.02287
G1 X162.424 Y108.424 E0.02287
G1 X163.003 Y107.980 E0.02287
G1 X163.677 Y107.701 E0.02287
G1 X164.348 Y107.613 E0.02124
G1 X175.652 Y107.613 E0.35440
G1 X176.323 Y107.701 E0.02124
G1 X176.997 Y107.980 E0.02287
G1 X177.576 Y108.424 E0.02287
G1 X178.020 Y109.003 E0.02287
G1 X178.299 Y109.677 E0.02287
G1 X178.387 Y110.348 E0.02124
G1 X178.387 Y121.652 E0.35440
G1 X178.299 Y122.323 E0.02124
G1 X178.020 Y122.997 E0.02287
G1 X177.576 Y123.576 E0.02287
G1 X176.997 Y124.020 E0.02287
G1 X176.323 Y124.299 E0.02287
G1 X175.652 Y124.387 E0.02124
G1 X164.348 Y124.387 E0.35440
G1 X163.677 Y124.299 E0.02124
G1 X163.003 Y124.020 E0.02287
G1 X162.424 Y123.576 E0.02287
G1 X161.980 Y122.997 E0.02287
G1 X161.701 Y122.323 E0.02287
G1 X161.613 Y121.652 E0.02124
G1 X161.613 Y110.348 E0.35440
G1 X161.693 Y109.736 E0.01936
G1 X162.067 Y109.786 F10800.000
;TYPE:External perimeter
G1 F1200.000
G1 X162.310 Y109.193 E0.02007
G1 X162.693 Y108.693 E0.01976
G1 X163.193 Y108.310 E0.01976
G1 X163.775 Y108.069 E0.01976
G1 X164.373 Y107.990 E0.01891
G1 X175.627 Y107.990 E0.35285
G1 X176.225 Y108.069 E0.01891
G1 X176.807 Y108.310 E0.01976
G1 X177.307 Y108.693 E0.01976
G1 X177.690 Y109.193 E0.01976
G1 X177.931 Y109.775 E0.01976
G1 X178.010 Y110.373 E0.01891
G1 X178.010 Y121.627 E0.35285
G1 X177.931 Y122.225 E0.01891
G1 X177.690 Y122.807 E0.01976
G1 X177.307 Y123.307 E0.01976
G1 X176.807 Y123.690 E0.01975
G1 X176.225 Y123.931 E0.01976
G1 X175.627 Y124.010 E0.01891
G1 X164.373 Y124.010 E0.35285
G1 X163.775 Y123.931 E0.01891
G1 X163.193 Y123.690 E0.01976
G1 X162.693 Y123.307 E0.01975
G1 X162.310 Y122.807 E0.01976
G1 X162.069 Y122.225 E0.01976
G1 X161.990 Y121.627 E0.01891
G1 X161.990 Y110.373 E0.35285
G1 X162.060 Y109.845 E0.01670
G1 X161.784 Y109.503 F10800.000
;WIPE_START
G1 F8640.000
G1 X162.310 Y109.193 E-0.16123
G1 X162.693 Y108.693 E-0.14548
G1 X163.193 Y108.310 E-0.14548
G1 X163.775 Y108.069 E-0.14548
G1 X164.373 Y107.990 E-0.13922
G1 X164.473 Y107.990 E-0.02310
;WIPE_END
G1 E-0.04000 F2100.000
G1 Z0.600 F10800.000
G1 X167.995 Y98.736
G1 Z0.200
G1 E0.80000 F2100.000
;TYPE:Perimeter
G1 F1200.000
G1 X167.271 Y98.245 E0.02743
G1 X166.639 Y97.585 E0.02865
G1 X166.142 Y96.758 E0.03025
G1 X165.854 Y95.889 E0.02870
G1 X165.760 Y94.977 E0.02875
G1 X165.864 Y94.066 E0.02875
G1 X166.161 Y93.199 E0.02875
G1 X166.637 Y92.417 E0.02870
G1 X167.239 Y91.782 E0.02743
G1 X167.994 Y91.264 E0.02870
G1 X168.844 Y90.921 E0.02875
G1 X169.749 Y90.767 E0.02880
G1 X170.707 Y90.819 E0.03006
G1 X171.590 Y91.069 E0.02880
G1 X172.398 Y91.503 E0.02875
G1 X173.094 Y92.101 E0.02875
G1 X173.645 Y92.833 E0.02875
G1 X174.025 Y93.668 E0.02875
G1 X174.218 Y94.564 E0.02875
G1 X174.213 Y95.481 E0.02875
G1 X174.011 Y96.375 E0.02875
G1 X173.622 Y97.204 E0.02870
G1 X173.092 Y97.902 E0.02748
G1 X172.362 Y98.521 E0.03001
G1 X171.548 Y98.947 E0.02880
G1 X170.664 Y99.188 E0.02875
G1 X169.748 Y99.233 E0.02875
G1 X168.844 Y99.079 E0.02875
G1 X168.051 Y98.759 E0.02682
G1 X168.192 Y98.409 F10800.000
;TYPE:External perimeter
G1 F1200.000
G1 X167.516 Y97.955 E0.02554
G1 X166.939 Y97.353 E0.02614
G1 X166.487 Y96.602 E0.02749
G1 X166.225 Y95.810 E0.02616
G1 X166.139 Y94.979 E0.02618
G1 X166.234 Y94.150 E0.02618
G1 X166.505 Y93.360 E0.02618
G1 X166.939 Y92.648 E0.02616
G1 X167.485 Y92.071 E0.02492
G1 X168.173 Y91.599 E0.02616
G1 X168.947 Y91.285 E0.02618
G1 X169.771 Y91.146 E0.02619
G1 X170.644 Y91.193 E0.02743
G1 X171.448 Y91.421 E0.02619
G1 X172.184 Y91.816 E0.02618
G1 X172.817 Y92.360 E0.02618
G1 X173.319 Y93.027 E0.02618
G1 X173.665 Y93.787 E0.02618
G1 X173.840 Y94.603 E0.02618
G1 X173.836 Y95.438 E0.02618
G1 X173.652 Y96.252 E0.02618
G1 X173.298 Y97.008 E0.02616
G1 X172.816 Y97.641 E0.02494
G1 X172.150 Y98.207 E0.02741
G1 X171.410 Y98.594 E0.02619
G1 X170.604 Y98.813 E0.02618
G1 X169.770 Y98.854 E0.02618
G1 X168.947 Y98.715 E0.02618
G1 X168.248 Y98.432 E0.02365
G1 X167.854 Y98.622 F10800.000
;WIPE_START
G1 F8640.000
G1 X167.516 Y97.955 E-0.20165
G1 X166.939 Y97.353 E-0.19252
G1 X166.487 Y96.602 E-0.20248
G1 X166.265 Y95.930 E-0.16336
;WIPE_END
G1 E-0.04000 F2100.000
G1 Z0.600 F10800.000
G1 X124.299 Y109.677
G1 Z0.200
G1 E0.80000 F2100.000
;TYPE:Perimeter
G1 F1200.000
G1 X124.387 Y110.348 E0.02124
G1 X124.387 Y121.652 E0.35440
G1 X124.299 Y122.323 E0.02124
G1 X124.020 Y122.997 E0.02287
G1 X123.576 Y123.576 E0.02287
G1 X122.997 Y124.020 E0.02287
G1 X122.323 Y124.299 E0.02287
G1 X121.652 Y124.387 E0.02124
G1 X110.348 Y124.387 E0.35440
G1 X109.677 Y124.299 E0.02124
G1 X109.003 Y124.020 E0.02287
G1 X108.424 Y123.576 E0.02287
G1 X107.980 Y122.997 E0.02287
G1 X107.701 Y122.323 E0.02287
G1 X107.613 Y121.652 E0.02124
G1 X107.613 Y110.348 E0.35440
G1 X107.701 Y109.677 E0.02124
G1 X107.980 Y109.003 E0.02287
G1 X108.424 Y108.424 E0.02287
G1 X109.003 Y107.980 E0.02287
G1 X109.677 Y107.701 E0.02287
G1 X110.348 Y107.613 E0.02124
G1 X121.652 Y107.613 E0.35440
G1 X122.323 Y107.701 E0.02124
G1 X122.997 Y107.980 E0.02287
G1 X123.576 Y108.424 E0.02287
G1 X124.020 Y109.003 E0.02287
G1 X124.276 Y109.621 E0.02099
G1 X123.927 Y109.766 F10800.000
;TYPE:External perimeter
G1 F1200.000
G1 X124.010 Y110.373 E0.01922
G1 X124.010 Y121.627 E0.35285
G1 X123.931 Y122.225 E0.01891
